<?xml version="1.0" encoding="UTF-8"?>
<map version="1.8" tiledversion="1.11.2" orientation="orthogonal" renderorder="right-down" width="300" height="20" tilewidth="16" tileheight="16" infinite="0" nextlayerid="9" nextobjectid="183">
 <editorsettings>
  <export target="rock_mnt.tmj" format="json"/>
 </editorsettings>
 <tileset firstgid="1" name="summer_" tilewidth="16" tileheight="16" tilecount="280" columns="14">
  <image source="../tilesets/summer_.png" width="224" height="320"/>
  <wangsets>
   <wangset name="dirt_with_grass" type="mixed" tile="-1">
    <wangcolor name="" color="#ff0000" tile="-1" probability="1"/>
    <wangcolor name="" color="#00ff00" tile="-1" probability="1"/>
    <wangcolor name="" color="#0000ff" tile="-1" probability="1"/>
    <wangtile tileid="28" wangid="2,2,0,0,0,0,0,0"/>
    <wangtile tileid="29" wangid="2,0,0,0,0,0,0,2"/>
    <wangtile tileid="30" wangid="2,0,0,0,0,0,0,0"/>
    <wangtile tileid="31" wangid="3,3,1,0,0,0,0,0"/>
    <wangtile tileid="32" wangid="3,0,0,0,0,0,1,3"/>
    <wangtile tileid="34" wangid="0,0,1,1,1,0,0,0"/>
    <wangtile tileid="35" wangid="0,0,1,1,1,1,1,0"/>
    <wangtile tileid="36" wangid="0,0,0,0,1,1,1,0"/>
    <wangtile tileid="37" wangid="0,0,1,0,0,0,0,0"/>
    <wangtile tileid="38" wangid="0,0,0,0,0,0,1,0"/>
    <wangtile tileid="42" wangid="2,2,1,1,1,0,0,0"/>
    <wangtile tileid="43" wangid="2,0,0,0,1,1,1,2"/>
    <wangtile tileid="44" wangid="2,0,0,0,0,0,0,0"/>
    <wangtile tileid="45" wangid="3,3,1,1,1,0,0,0"/>
    <wangtile tileid="46" wangid="3,0,0,0,1,0,1,3"/>
    <wangtile tileid="47" wangid="3,0,0,0,0,0,0,0"/>
    <wangtile tileid="48" wangid="1,1,1,1,1,0,0,0"/>
    <wangtile tileid="49" wangid="1,1,1,1,1,0,1,1"/>
    <wangtile tileid="50" wangid="1,0,0,0,1,1,1,1"/>
    <wangtile tileid="51" wangid="0,0,1,1,1,0,0,0"/>
    <wangtile tileid="52" wangid="0,0,0,0,1,1,1,0"/>
    <wangtile tileid="53" wangid="0,0,0,0,1,0,0,0"/>
    <wangtile tileid="56" wangid="1,1,1,0,0,0,0,0"/>
    <wangtile tileid="57" wangid="1,0,0,0,0,0,1,1"/>
    <wangtile tileid="59" wangid="1,0,1,0,0,0,0,0"/>
    <wangtile tileid="60" wangid="1,0,0,0,0,0,1,0"/>
    <wangtile tileid="62" wangid="1,1,1,0,0,0,0,0"/>
    <wangtile tileid="63" wangid="1,1,1,0,0,0,1,1"/>
    <wangtile tileid="64" wangid="1,0,0,0,0,0,1,1"/>
    <wangtile tileid="65" wangid="1,1,1,0,0,0,0,0"/>
    <wangtile tileid="66" wangid="1,0,0,0,0,0,1,1"/>
    <wangtile tileid="67" wangid="1,0,0,0,0,0,0,0"/>
   </wangset>
   <wangset name="dark_rock" type="mixed" tile="-1">
    <wangcolor name="" color="#ff0000" tile="-1" probability="1"/>
    <wangcolor name="" color="#00ff00" tile="-1" probability="1"/>
    <wangcolor name="" color="#0000ff" tile="-1" probability="1"/>
    <wangtile tileid="98" wangid="2,2,0,0,0,0,0,0"/>
    <wangtile tileid="99" wangid="2,0,0,0,0,0,0,2"/>
    <wangtile tileid="100" wangid="2,0,0,0,0,0,0,0"/>
    <wangtile tileid="101" wangid="3,3,0,0,0,0,0,0"/>
    <wangtile tileid="102" wangid="3,0,0,0,0,0,0,3"/>
    <wangtile tileid="103" wangid="3,0,0,0,0,0,0,0"/>
    <wangtile tileid="104" wangid="0,0,1,1,1,0,0,0"/>
    <wangtile tileid="105" wangid="0,0,1,0,1,1,1,0"/>
    <wangtile tileid="106" wangid="0,0,0,0,1,0,1,0"/>
    <wangtile tileid="107" wangid="0,0,1,0,0,0,0,0"/>
    <wangtile tileid="108" wangid="0,0,0,0,0,0,1,0"/>
    <wangtile tileid="112" wangid="2,2,1,1,1,0,0,0"/>
    <wangtile tileid="113" wangid="2,0,0,0,1,1,1,2"/>
    <wangtile tileid="114" wangid="2,0,0,0,0,0,0,0"/>
    <wangtile tileid="115" wangid="3,3,1,1,1,0,0,0"/>
    <wangtile tileid="116" wangid="3,0,0,0,1,1,1,3"/>
    <wangtile tileid="117" wangid="3,0,0,0,1,0,0,0"/>
    <wangtile tileid="118" wangid="1,0,1,0,1,0,0,0"/>
    <wangtile tileid="119" wangid="1,0,1,0,1,1,1,0"/>
    <wangtile tileid="120" wangid="1,0,0,0,1,0,1,0"/>
    <wangtile tileid="121" wangid="0,0,1,0,1,0,0,0"/>
    <wangtile tileid="122" wangid="0,0,0,0,1,0,1,0"/>
    <wangtile tileid="123" wangid="0,0,0,0,1,0,0,0"/>
    <wangtile tileid="126" wangid="1,1,1,0,0,0,0,0"/>
    <wangtile tileid="127" wangid="1,0,0,0,0,0,1,1"/>
    <wangtile tileid="129" wangid="1,1,1,0,0,0,0,0"/>
    <wangtile tileid="130" wangid="1,0,0,0,0,0,1,1"/>
    <wangtile tileid="131" wangid="1,0,0,0,0,0,0,0"/>
    <wangtile tileid="132" wangid="1,0,1,0,0,0,0,0"/>
    <wangtile tileid="133" wangid="1,0,1,0,0,0,1,0"/>
    <wangtile tileid="134" wangid="1,0,0,0,0,0,1,0"/>
    <wangtile tileid="135" wangid="1,0,1,0,0,0,0,0"/>
    <wangtile tileid="136" wangid="1,0,0,0,0,0,1,0"/>
    <wangtile tileid="137" wangid="1,0,0,0,0,0,0,0"/>
   </wangset>
   <wangset name="light_rock" type="mixed" tile="-1">
    <wangcolor name="" color="#ff0000" tile="-1" probability="1"/>
    <wangcolor name="" color="#00ff00" tile="-1" probability="1"/>
    <wangcolor name="" color="#0000ff" tile="-1" probability="1"/>
    <wangtile tileid="168" wangid="2,2,0,0,0,0,0,0"/>
    <wangtile tileid="169" wangid="2,0,0,0,0,0,0,2"/>
    <wangtile tileid="170" wangid="2,0,0,0,0,0,0,0"/>
    <wangtile tileid="171" wangid="3,3,0,0,0,0,0,0"/>
    <wangtile tileid="172" wangid="3,0,0,0,0,0,0,3"/>
    <wangtile tileid="174" wangid="0,0,1,1,1,0,0,0"/>
    <wangtile tileid="175" wangid="0,0,1,1,1,1,1,0"/>
    <wangtile tileid="176" wangid="0,0,0,0,1,1,1,0"/>
    <wangtile tileid="177" wangid="0,0,1,0,0,0,0,0"/>
    <wangtile tileid="178" wangid="0,0,0,0,0,0,1,0"/>
    <wangtile tileid="182" wangid="2,2,1,1,1,0,0,0"/>
    <wangtile tileid="183" wangid="2,0,0,0,1,1,1,2"/>
    <wangtile tileid="184" wangid="2,0,0,0,0,0,0,0"/>
    <wangtile tileid="185" wangid="3,3,1,1,1,0,0,0"/>
    <wangtile tileid="186" wangid="3,0,0,0,1,1,1,3"/>
    <wangtile tileid="188" wangid="1,1,1,1,1,0,0,0"/>
    <wangtile tileid="189" wangid="1,1,1,1,1,1,1,1"/>
    <wangtile tileid="190" wangid="1,0,0,0,1,1,1,1"/>
    <wangtile tileid="191" wangid="0,0,1,1,1,0,0,0"/>
    <wangtile tileid="192" wangid="0,0,0,0,1,1,1,0"/>
    <wangtile tileid="193" wangid="0,0,0,0,1,0,0,0"/>
    <wangtile tileid="196" wangid="1,1,1,0,0,0,0,0"/>
    <wangtile tileid="197" wangid="1,0,0,0,0,0,1,1"/>
    <wangtile tileid="199" wangid="1,1,1,0,0,0,0,0"/>
    <wangtile tileid="200" wangid="1,0,0,0,0,0,1,1"/>
    <wangtile tileid="202" wangid="1,1,1,0,0,0,0,0"/>
    <wangtile tileid="203" wangid="1,1,1,0,0,0,1,1"/>
    <wangtile tileid="204" wangid="1,0,0,0,0,0,1,1"/>
    <wangtile tileid="205" wangid="1,1,1,0,0,0,0,0"/>
    <wangtile tileid="206" wangid="1,0,0,0,0,0,1,1"/>
    <wangtile tileid="207" wangid="1,0,0,0,0,0,0,0"/>
   </wangset>
  </wangsets>
 </tileset>
 <tileset firstgid="281" name="staticObjects_" tilewidth="16" tileheight="16" tilecount="162" columns="18">
  <image source="../tilesets/staticObjects_.png" width="288" height="144"/>
 </tileset>
 <tileset firstgid="443" name="autumn_" tilewidth="16" tileheight="16" tilecount="220" columns="11">
  <image source="../tilesets/autumn_.png" width="176" height="320"/>
  <wangsets>
   <wangset name="dark_dirt" type="mixed" tile="-1">
    <wangcolor name="" color="#ff0000" tile="-1" probability="1"/>
    <wangcolor name="" color="#00ff00" tile="-1" probability="1"/>
    <wangtile tileid="22" wangid="2,2,1,0,0,0,0,0"/>
    <wangtile tileid="23" wangid="2,0,0,0,0,0,1,2"/>
    <wangtile tileid="24" wangid="2,0,0,0,0,0,0,0"/>
    <wangtile tileid="25" wangid="0,0,1,1,1,0,0,0"/>
    <wangtile tileid="26" wangid="0,0,1,1,1,1,1,0"/>
    <wangtile tileid="27" wangid="0,0,0,0,1,1,1,0"/>
    <wangtile tileid="28" wangid="0,0,1,0,0,0,0,0"/>
    <wangtile tileid="29" wangid="0,0,0,0,0,0,1,0"/>
    <wangtile tileid="33" wangid="2,2,1,1,1,0,0,0"/>
    <wangtile tileid="34" wangid="2,0,0,0,1,1,1,2"/>
    <wangtile tileid="35" wangid="2,0,0,0,0,0,0,0"/>
    <wangtile tileid="36" wangid="1,1,1,1,1,0,0,0"/>
    <wangtile tileid="37" wangid="1,1,1,1,1,1,1,1"/>
    <wangtile tileid="38" wangid="1,0,0,0,1,1,1,1"/>
    <wangtile tileid="39" wangid="0,0,1,1,1,0,0,0"/>
    <wangtile tileid="40" wangid="0,0,0,0,1,1,1,0"/>
    <wangtile tileid="41" wangid="0,0,0,0,1,0,0,0"/>
    <wangtile tileid="44" wangid="1,1,1,0,0,0,0,0"/>
    <wangtile tileid="45" wangid="1,0,0,0,0,0,1,1"/>
    <wangtile tileid="47" wangid="1,1,1,0,0,0,0,0"/>
    <wangtile tileid="48" wangid="1,1,1,0,0,0,1,1"/>
    <wangtile tileid="49" wangid="1,0,0,0,0,0,1,0"/>
    <wangtile tileid="50" wangid="1,1,1,0,0,0,0,0"/>
    <wangtile tileid="51" wangid="1,0,0,0,0,0,1,1"/>
    <wangtile tileid="52" wangid="1,0,0,0,0,0,0,0"/>
   </wangset>
   <wangset name="rock" type="mixed" tile="-1">
    <wangcolor name="" color="#ff0000" tile="-1" probability="1"/>
    <wangcolor name="" color="#00ff00" tile="-1" probability="1"/>
    <wangtile tileid="77" wangid="2,2,1,0,0,0,0,2"/>
    <wangtile tileid="78" wangid="2,2,0,0,0,0,1,2"/>
    <wangtile tileid="79" wangid="2,2,0,0,0,0,0,2"/>
    <wangtile tileid="80" wangid="0,0,1,1,1,0,0,0"/>
    <wangtile tileid="81" wangid="0,0,1,1,1,1,1,0"/>
    <wangtile tileid="82" wangid="0,0,0,0,1,1,1,0"/>
    <wangtile tileid="83" wangid="0,0,1,0,0,0,0,0"/>
    <wangtile tileid="84" wangid="0,0,0,0,0,0,1,0"/>
    <wangtile tileid="85" wangid="1,0,1,0,1,0,1,0"/>
    <wangtile tileid="88" wangid="2,2,1,1,1,0,0,2"/>
    <wangtile tileid="89" wangid="2,2,0,0,1,1,1,2"/>
    <wangtile tileid="90" wangid="2,2,0,0,1,0,0,2"/>
    <wangtile tileid="91" wangid="1,1,1,1,1,0,0,0"/>
    <wangtile tileid="92" wangid="1,1,1,1,1,1,1,1"/>
    <wangtile tileid="93" wangid="1,0,0,0,1,1,1,1"/>
    <wangtile tileid="94" wangid="0,0,1,1,1,0,0,0"/>
    <wangtile tileid="95" wangid="0,0,0,0,1,1,1,0"/>
    <wangtile tileid="96" wangid="0,0,0,0,1,0,0,0"/>
    <wangtile tileid="99" wangid="1,1,1,0,0,0,0,0"/>
    <wangtile tileid="100" wangid="1,0,0,0,0,0,1,1"/>
    <wangtile tileid="101" wangid="1,0,0,0,0,0,0,0"/>
    <wangtile tileid="102" wangid="1,1,1,0,0,0,0,0"/>
    <wangtile tileid="103" wangid="1,1,1,0,0,0,1,1"/>
    <wangtile tileid="104" wangid="1,0,0,0,0,0,1,1"/>
    <wangtile tileid="105" wangid="1,1,1,0,0,0,0,0"/>
    <wangtile tileid="106" wangid="1,0,0,0,0,0,1,1"/>
    <wangtile tileid="107" wangid="1,0,0,0,0,0,0,0"/>
   </wangset>
  </wangsets>
 </tileset>
 <tileset firstgid="663" name="bg_objects" tilewidth="16" tileheight="16" tilecount="162" columns="18">
  <image source="../tilesets/staticObjects_.png" width="288" height="144"/>
 </tileset>
 <tileset firstgid="825" source="bg_objects.tsx"/>
 <tileset firstgid="987" source="autumn_.tsx"/>
 <tileset firstgid="1207" name="visual_hitboxes" tilewidth="16" tileheight="16" tilecount="13" columns="13">
  <image source="../tilesets/visual_hitboxes.png" width="208" height="16"/>
 </tileset>
 <layer id="8" name="background_dark" width="300" height="20" tintcolor="#7f7f7f">
  <data encoding="csv">
0,0,0,0,0,0,0,0,0,0,0,0,0,0,0,0,0,0,0,0,0,0,0,0,0,0,0,0,0,0,0,0,0,0,0,0,0,0,0,0,0,0,0,0,0,0,0,0,0,0,0,0,0,0,0,0,0,0,0,0,0,0,0,0,0,0,0,0,0,0,0,0,0,0,0,0,0,0,0,0,0,0,0,0,0,0,0,0,0,0,0,0,0,0,0,0,0,0,0,0,0,0,0,0,0,0,0,0,0,0,0,0,0,0,0,0,0,0,0,0,0,0,0,0,0,0,0,0,0,0,0,0,0,0,0,0,0,0,0,0,0,0,0,0,0,0,0,0,0,0,0,0,0,0,0,0,0,0,0,0,0,0,0,0,0,0,0,0,0,0,0,0,0,0,0,0,0,0,0,0,0,0,0,0,0,0,0,0,0,0,0,0,0,0,0,0,0,0,0,0,0,0,0,0,0,0,0,0,0,0,0,0,0,0,0,0,0,0,0,0,0,0,0,0,0,0,0,0,0,0,0,0,0,0,0,0,0,0,0,0,0,0,0,0,0,0,0,0,0,0,0,0,0,0,0,0,0,0,0,0,0,0,0,0,0,0,0,0,0,0,0,0,0,0,0,0,0,0,0,0,0,0,0,0,0,0,0,0,0,0,0,0,0,0,0,0,0,0,0,0,
0,0,0,0,0,0,0,0,0,0,0,0,0,0,0,0,0,0,0,0,0,0,0,0,0,0,0,0,0,0,0,0,0,0,0,0,0,0,0,0,0,0,0,0,0,0,0,0,0,0,0,0,0,0,0,0,0,0,0,0,0,0,0,0,0,0,0,0,0,0,0,0,0,0,0,0,0,0,0,0,0,0,0,0,0,0,0,0,0,0,0,0,0,0,0,0,0,0,0,0,0,0,0,0,0,0,0,0,0,0,0,0,0,0,0,0,0,0,0,0,0,0,0,0,0,0,0,0,0,0,0,0,0,0,0,0,0,0,0,0,0,0,0,0,0,0,0,0,0,0,0,0,0,0,0,0,0,0,0,0,0,0,0,0,0,0,0,0,0,0,0,0,0,0,0,0,0,0,0,0,0,0,0,0,0,0,0,0,0,0,0,0,0,0,0,0,0,0,0,0,0,0,0,0,0,0,0,0,0,0,0,0,0,0,0,0,0,0,0,0,0,0,0,0,0,0,0,0,0,0,0,0,0,0,0,0,0,0,0,0,0,0,0,0,0,0,0,0,0,0,0,0,0,0,0,0,0,0,0,0,0,0,0,0,0,0,0,0,0,0,0,0,0,0,0,0,0,0,0,0,0,0,0,0,0,0,0,0,0,0,0,0,0,0,0,0,0,0,0,0,
0,0,0,0,0,0,0,0,0,0,0,0,0,0,0,0,0,0,0,0,0,0,0,0,0,0,0,0,0,0,0,0,0,0,0,0,0,0,0,0,0,0,0,0,0,0,0,0,0,0,0,0,0,0,0,0,0,0,0,0,0,0,0,0,0,0,0,0,0,0,0,0,0,0,0,0,0,0,0,0,0,0,0,0,0,0,0,0,0,0,0,0,0,0,0,0,0,0,0,0,0,0,0,0,0,0,0,0,0,0,0,0,0,0,0,0,0,0,0,0,0,0,0,0,0,0,0,0,0,0,0,0,0,0,0,0,0,0,0,0,0,0,0,0,0,0,0,0,0,0,0,0,0,0,0,0,0,0,0,0,0,0,0,0,0,38,39,0,0,0,0,0,0,0,0,0,0,0,0,0,0,0,0,0,0,0,0,0,0,0,0,0,0,0,0,0,0,35,53,38,39,0,0,0,0,0,0,0,0,0,0,0,0,0,0,0,0,0,0,0,0,0,0,0,0,0,0,0,0,0,0,0,0,0,0,0,0,0,0,0,0,0,0,0,0,0,0,0,0,175,177,0,0,0,0,0,0,0,0,0,0,0,0,0,0,0,0,0,0,0,0,0,0,0,0,0,0,0,0,0,0,0,0,0,0,0,0,0,0,0,0,0,0,0,0,35,36,37,35,36,
0,0,0,0,0,0,0,0,0,0,0,0,0,0,0,0,0,0,0,0,0,0,0,0,0,0,0,0,0,0,0,0,0,0,0,0,0,0,0,0,0,0,0,0,0,0,0,0,0,0,0,0,0,0,0,0,0,0,0,0,0,0,0,0,0,0,0,0,0,0,0,0,0,0,0,0,0,0,0,0,0,0,0,0,0,0,0,0,0,0,0,0,0,0,0,0,0,0,0,0,0,0,0,0,0,0,0,0,124,0,0,0,0,0,0,0,0,0,0,0,0,0,0,0,0,0,0,0,0,0,0,0,0,0,0,0,0,0,0,0,0,0,0,0,0,0,0,0,0,0,0,0,0,0,0,0,0,0,0,0,0,0,54,52,53,39,52,53,54,0,0,0,0,0,0,0,35,37,54,0,0,0,0,0,0,54,52,37,0,0,0,0,0,0,0,0,0,49,51,35,36,53,0,0,0,0,0,0,0,0,0,0,0,0,0,0,0,0,0,0,0,0,0,0,0,0,0,0,0,0,0,0,0,0,0,0,0,0,0,0,0,0,0,0,0,0,0,0,0,189,191,0,0,0,0,0,0,0,0,0,0,0,0,0,0,0,0,0,0,0,0,0,0,0,0,0,0,0,0,0,0,0,0,0,0,0,0,0,0,0,0,0,0,0,0,49,50,51,49,50,
0,0,0,0,0,0,0,0,0,0,0,0,0,0,0,0,0,0,0,0,0,0,0,0,0,0,0,0,0,0,0,0,0,0,0,0,0,0,0,0,0,0,0,0,0,0,0,0,0,0,0,0,0,0,0,0,0,0,0,0,0,0,0,0,0,0,0,0,0,0,0,0,0,0,0,0,0,0,0,0,0,0,0,0,0,0,0,0,0,0,0,0,0,0,0,0,0,0,0,0,0,0,0,0,0,0,0,0,138,124,0,0,0,0,0,0,0,0,0,0,0,0,0,0,0,0,0,0,0,0,0,0,0,0,0,0,0,0,0,0,0,0,0,0,0,0,0,0,0,0,0,0,0,0,0,0,0,0,0,0,0,0,68,66,67,39,57,67,68,52,53,0,0,0,0,0,66,67,68,0,0,0,38,39,54,68,57,65,38,39,0,0,0,0,0,0,0,49,51,66,50,51,0,0,0,0,0,0,0,0,0,0,0,0,0,0,0,0,0,0,0,0,0,0,0,0,0,0,0,0,0,0,0,0,0,0,0,0,0,0,0,0,0,0,0,0,0,0,0,189,191,192,176,176,176,193,0,0,0,0,0,0,0,0,0,0,0,0,0,0,0,0,0,0,0,0,0,0,0,0,0,0,0,0,0,0,0,0,0,0,0,0,0,0,0,63,64,65,63,64,
0,0,0,0,0,0,0,0,0,0,0,0,0,0,0,0,0,0,0,0,0,0,0,0,175,193,0,0,0,0,192,176,177,0,0,0,0,0,0,0,0,0,0,0,0,0,0,0,0,0,0,0,0,0,0,0,0,0,0,0,0,0,0,0,0,0,0,0,0,0,0,0,0,0,0,0,0,0,0,0,0,0,0,0,0,0,0,0,0,0,0,0,0,0,0,0,0,0,0,0,0,0,0,0,0,0,0,0,0,138,122,123,105,106,107,0,0,0,0,0,122,123,0,0,0,0,0,0,0,0,0,0,0,0,0,0,0,0,0,0,0,0,0,0,0,0,0,0,0,0,0,0,0,0,0,0,0,0,0,0,0,0,0,40,52,36,36,36,37,66,65,0,0,0,0,38,39,0,0,0,0,0,0,0,68,38,39,35,37,54,0,0,0,0,0,0,0,49,51,54,49,51,0,0,0,0,0,0,0,0,0,0,0,0,0,0,0,0,0,0,0,0,0,0,0,0,0,0,0,0,0,0,0,0,0,0,0,0,0,0,0,0,0,0,0,0,0,0,0,189,191,189,190,190,190,191,194,0,0,0,0,0,0,0,0,0,0,0,0,0,0,0,0,0,0,0,0,0,0,0,0,0,0,0,0,0,0,0,0,0,0,0,0,0,0,0,0,427,427,427,
0,0,0,0,0,0,0,0,0,0,0,0,0,0,0,0,0,0,0,0,0,0,0,194,200,198,0,0,175,177,200,204,205,0,0,0,0,0,0,0,0,0,0,108,109,0,0,0,0,0,0,0,0,0,0,0,0,0,0,0,0,0,0,0,0,0,0,0,0,0,0,0,0,0,0,0,0,0,0,0,0,0,0,0,0,0,0,0,0,0,0,0,0,0,0,0,0,0,0,0,0,0,0,0,0,0,0,0,0,0,136,137,119,120,121,0,0,122,123,0,122,123,124,0,0,0,0,0,0,0,0,0,0,0,0,0,0,0,0,0,0,0,0,0,0,0,0,0,0,0,0,0,0,0,0,0,0,0,0,0,0,0,0,40,66,64,64,50,51,52,37,0,0,0,52,37,35,53,0,0,0,0,0,0,52,36,53,57,65,68,0,0,0,0,0,0,0,49,51,68,49,51,0,0,0,0,0,0,0,0,0,0,0,0,0,0,0,0,0,0,0,0,0,0,0,0,0,0,0,0,0,0,0,0,0,0,0,0,0,0,0,0,0,0,0,0,0,0,0,189,191,200,190,190,190,191,208,0,0,0,0,0,0,0,0,0,0,0,0,0,0,0,0,0,0,0,0,0,0,0,0,0,0,0,0,0,0,0,0,0,0,0,0,0,0,0,0,427,427,427,
0,0,0,0,0,0,0,0,0,0,0,0,0,0,0,0,0,0,0,0,0,0,0,208,192,176,176,193,189,191,194,192,124,108,109,0,0,0,0,0,0,0,108,109,124,0,0,0,0,0,0,0,0,0,0,0,0,0,0,0,0,0,0,0,0,0,0,0,0,0,0,0,0,0,0,0,0,0,0,0,0,0,0,0,0,0,0,0,0,0,0,0,0,0,0,0,0,0,0,0,0,0,0,0,0,0,0,0,0,0,0,0,133,134,135,0,0,136,137,0,136,137,138,0,0,0,0,0,0,0,0,0,0,0,0,0,0,0,0,0,0,0,0,0,0,0,0,0,0,0,0,0,0,0,0,0,0,0,0,0,0,0,0,52,37,35,53,66,58,66,58,0,52,53,49,51,49,51,0,0,0,0,0,0,63,64,58,54,35,37,0,0,0,0,0,0,0,49,51,54,66,65,0,0,0,0,0,0,38,39,0,0,0,0,0,0,0,0,0,0,0,0,0,0,0,0,0,0,0,0,0,0,0,0,0,0,0,0,0,0,0,0,0,0,0,192,176,176,193,189,191,0,204,190,190,191,194,0,0,0,0,0,0,0,0,192,193,0,0,0,0,0,0,0,0,0,0,0,0,0,0,0,0,0,0,0,0,0,0,0,0,0,0,0,0,0,0,427,427,427,
0,0,0,0,0,0,0,0,0,0,0,0,0,0,0,0,0,0,0,0,0,0,0,0,206,204,204,207,206,207,208,200,138,105,106,109,0,0,0,0,0,0,124,105,120,109,0,0,0,0,0,0,0,0,0,0,0,0,0,0,0,0,0,0,0,0,0,0,0,0,0,0,0,0,0,0,0,0,0,0,0,0,0,0,0,0,0,0,0,0,0,0,0,0,0,0,0,0,0,0,0,0,0,0,0,0,0,0,0,0,0,0,0,0,0,0,0,0,0,0,0,0,0,0,0,0,0,0,0,0,0,0,0,0,0,0,0,0,0,0,0,0,0,0,0,0,0,0,0,0,0,0,0,0,0,0,0,0,0,0,0,0,0,57,67,66,58,54,52,36,37,0,66,65,49,51,57,67,0,0,0,0,0,0,0,0,35,51,63,67,0,0,0,0,0,0,0,63,58,60,39,54,0,0,0,0,0,0,35,36,53,0,0,0,0,0,0,0,0,0,0,0,0,0,0,0,0,0,0,0,0,0,0,0,0,0,0,0,0,0,0,0,175,176,177,200,204,204,205,197,201,0,0,204,204,204,205,0,0,0,0,0,0,0,0,189,190,191,0,0,0,0,0,0,0,0,0,0,0,0,0,0,0,0,0,0,0,0,0,0,0,0,0,0,0,0,0,427,427,427,
0,0,0,0,0,0,0,0,0,0,0,0,0,0,0,0,0,0,0,0,0,0,0,0,0,175,177,192,176,176,176,122,123,130,128,0,0,0,0,0,0,0,138,130,131,0,0,0,0,0,0,0,0,0,0,0,0,0,0,0,0,0,0,0,0,0,0,0,0,0,0,0,0,0,0,0,0,0,0,0,0,0,0,0,0,0,0,0,0,0,0,0,0,0,0,0,0,0,0,0,0,0,0,0,0,0,0,0,0,0,0,0,0,0,0,0,0,0,0,0,0,0,0,0,0,0,0,0,0,0,0,0,0,0,0,0,0,0,0,0,0,0,0,0,0,0,0,0,0,0,0,0,0,0,0,0,0,0,0,0,0,0,54,35,37,68,38,61,57,50,51,54,35,37,66,58,35,36,36,37,0,0,0,0,0,0,57,58,38,39,0,0,0,0,0,0,0,38,39,54,54,68,0,0,0,0,0,0,57,64,65,0,0,0,0,0,0,0,0,0,0,0,0,0,0,0,0,0,0,0,0,0,0,0,0,0,0,0,0,0,175,193,189,190,190,177,0,0,0,0,0,0,0,0,0,0,0,0,0,0,0,0,0,0,0,189,190,190,191,0,0,0,0,0,0,0,0,0,0,0,0,0,0,0,0,0,0,0,0,0,0,0,0,0,0,0,0,427,427,427,
0,0,0,0,0,0,0,0,0,29,29,29,30,29,30,29,29,30,0,0,0,0,0,0,0,203,201,203,204,204,204,136,135,108,109,108,137,0,0,0,0,0,108,109,0,0,0,0,0,0,0,0,0,0,0,0,0,0,0,0,0,0,0,0,0,0,0,0,0,0,0,0,0,0,0,0,0,0,0,0,0,0,0,0,0,0,0,0,0,0,0,0,0,0,0,0,0,0,0,0,0,0,0,0,0,0,0,0,0,0,0,0,0,0,0,0,0,0,0,0,0,0,0,0,0,0,0,0,0,0,0,0,0,35,36,37,0,0,0,0,0,0,0,0,0,0,0,0,0,0,0,0,0,0,0,0,0,0,0,0,0,0,68,66,58,0,0,38,39,66,65,68,66,67,38,39,57,64,50,51,0,0,0,0,0,0,35,37,52,37,0,0,0,0,0,0,52,37,38,61,68,0,0,0,0,0,0,0,0,35,36,37,0,0,0,0,0,0,0,0,0,0,0,0,0,0,0,0,0,0,0,0,0,0,0,0,0,0,0,0,200,207,203,204,204,205,0,0,0,0,0,0,0,0,0,0,0,0,0,0,0,0,0,0,0,189,190,190,191,0,0,0,0,0,0,0,0,0,0,0,0,0,0,0,0,0,0,0,0,0,0,0,0,0,0,0,0,427,427,427,
0,0,0,0,0,0,0,0,0,35,36,37,35,36,37,35,36,37,0,0,0,0,0,0,0,192,193,0,0,0,50,50,50,50,50,50,50,50,50,50,50,50,50,50,50,50,50,50,0,0,0,0,0,0,0,0,0,0,0,0,0,0,0,0,0,0,0,0,0,0,0,0,0,0,0,0,0,0,0,0,0,0,0,0,0,0,0,0,0,0,0,0,0,0,0,0,0,0,0,0,0,0,0,0,0,0,0,0,0,0,0,0,0,0,0,0,0,0,0,0,0,0,0,0,0,0,0,0,0,0,0,0,0,49,50,51,0,0,0,0,0,0,0,0,0,0,0,0,0,0,0,0,0,0,0,0,0,0,0,0,0,0,0,0,0,0,0,0,0,0,0,0,0,0,0,0,0,0,57,67,0,0,0,0,0,0,57,58,66,65,0,0,0,0,0,0,49,51,35,53,54,0,0,0,0,0,0,0,0,63,64,58,0,0,0,0,0,0,0,0,0,0,0,0,0,0,0,0,0,0,0,0,0,0,0,0,0,0,0,0,0,0,0,0,0,0,0,0,0,0,0,0,0,0,0,0,0,0,0,0,0,0,0,0,0,189,190,190,191,0,0,0,0,35,53,0,0,0,0,0,0,0,0,0,0,0,0,0,0,0,0,0,0,0,0,0,0,427,427,427,
0,0,0,0,0,0,0,0,0,49,50,51,49,50,51,49,50,51,0,0,0,0,0,0,0,200,198,0,0,0,50,50,50,50,50,50,50,50,50,50,50,50,50,50,50,50,50,50,50,50,50,50,50,50,50,50,0,0,0,0,0,0,0,0,0,0,0,0,0,0,0,0,0,0,0,0,0,0,0,0,0,0,0,0,0,0,0,0,0,0,0,0,0,0,0,0,0,0,0,0,0,0,0,0,0,0,0,0,0,0,0,0,0,0,0,0,0,0,0,0,0,0,0,0,0,0,0,0,0,0,0,0,0,63,64,65,0,0,0,0,0,0,0,0,0,0,0,0,0,0,0,0,0,0,0,0,0,0,0,0,0,0,0,0,0,0,0,0,0,0,0,0,0,0,0,0,0,0,0,0,0,0,0,0,0,0,0,0,0,0,0,35,53,0,0,0,49,51,49,51,68,0,0,0,0,0,0,0,0,0,35,36,37,0,0,0,0,0,0,0,0,0,0,0,0,0,0,0,0,0,0,0,0,0,0,0,0,0,0,0,0,0,0,0,0,0,0,0,0,0,0,0,0,0,0,0,0,0,0,0,0,0,0,0,0,200,204,204,205,0,0,0,0,57,65,0,0,0,0,0,0,38,37,0,0,0,0,0,0,0,0,0,0,0,0,0,0,0,0,0,
0,0,0,0,0,0,0,0,0,63,64,65,63,64,65,63,64,65,0,0,0,0,0,0,0,0,175,176,177,0,50,50,50,50,50,50,50,50,50,50,50,50,50,50,50,50,50,50,50,50,50,50,50,50,50,50,0,51,0,0,0,0,0,0,0,0,0,0,0,0,0,0,0,0,0,0,0,0,0,0,0,0,0,0,0,0,0,0,0,0,0,0,0,0,0,0,0,0,0,0,0,0,0,0,0,0,0,0,0,0,0,0,0,0,0,0,0,0,0,0,0,0,0,0,0,0,0,0,0,0,0,0,35,36,37,0,0,0,0,0,0,0,0,0,0,0,0,0,0,0,0,0,0,0,0,0,0,0,0,0,0,0,0,0,0,0,0,0,0,0,0,0,0,0,0,0,0,0,0,0,0,0,0,0,0,0,0,0,0,0,0,57,51,0,0,0,63,65,57,58,0,0,0,0,0,0,0,0,52,53,63,64,58,0,0,0,0,0,0,0,0,0,0,0,0,0,0,0,0,0,0,0,0,0,0,0,0,0,0,0,0,0,0,0,0,0,0,0,0,0,0,0,0,0,0,0,0,0,0,0,0,0,0,0,0,0,0,35,37,0,0,0,0,35,39,38,39,0,0,0,54,54,68,0,0,0,0,0,0,0,0,0,0,0,0,0,0,0,0,0,
0,0,0,0,0,0,0,0,0,0,0,0,0,0,0,0,0,0,0,0,0,0,0,0,0,0,189,190,50,50,50,50,50,50,50,50,50,50,50,50,50,50,50,50,50,50,50,50,50,50,50,50,50,50,50,50,50,51,0,0,0,0,0,0,0,0,0,0,0,0,0,0,0,0,0,0,0,0,0,0,0,0,0,0,0,0,0,0,0,0,0,0,0,0,0,0,0,0,0,0,0,0,0,0,0,0,0,0,0,0,0,0,0,0,0,0,0,0,0,0,0,0,0,0,0,0,0,0,0,0,0,0,49,50,51,0,0,0,0,0,0,0,0,0,0,0,0,0,0,0,0,0,0,0,0,0,0,0,0,0,0,0,0,0,0,0,0,0,0,0,0,0,0,0,0,0,0,0,0,0,0,0,0,0,0,0,0,0,0,38,39,54,68,0,0,0,35,36,36,37,0,0,0,0,0,0,0,0,57,65,0,54,38,39,0,0,0,0,0,0,0,0,0,0,0,0,0,0,0,0,0,0,0,0,0,0,0,0,0,0,0,0,0,0,0,0,0,0,0,0,0,0,0,0,0,0,0,0,0,0,0,0,0,38,39,52,53,49,51,0,0,0,0,66,52,36,36,36,37,38,61,68,54,0,0,0,0,0,0,54,38,39,0,38,37,0,0,0,0,0,
0,0,0,0,0,0,0,0,0,0,0,0,0,0,0,0,0,0,0,0,0,0,0,0,0,0,189,190,50,50,50,50,50,50,50,50,50,50,50,50,50,50,50,50,50,50,50,50,50,50,50,50,50,50,52,50,50,53,0,0,0,0,0,0,0,0,0,0,0,0,0,0,0,0,0,0,0,0,0,0,0,0,0,0,0,0,0,0,0,0,0,0,0,0,0,0,0,0,0,0,0,0,0,0,0,0,0,0,0,0,0,0,0,0,0,0,0,0,35,36,35,36,37,35,36,37,35,36,37,35,36,37,63,64,65,0,0,0,0,0,0,0,0,0,0,0,0,0,0,0,0,0,0,0,0,0,0,0,0,0,0,0,0,0,0,0,0,0,0,0,0,0,0,0,0,0,0,0,0,0,0,0,0,0,0,0,0,0,0,54,38,61,0,0,0,0,57,64,64,51,0,0,0,0,0,0,0,35,53,54,0,68,35,36,37,0,0,0,0,0,0,0,0,0,0,0,0,0,0,0,0,0,0,0,0,0,0,0,0,54,0,0,0,0,0,0,0,0,0,0,0,0,0,0,0,0,0,0,0,0,0,0,54,35,37,57,58,66,58,0,0,0,0,0,66,64,64,64,58,54,35,53,68,0,0,0,0,0,0,68,38,39,35,37,68,0,0,0,0,0,
0,0,0,0,0,0,0,0,0,0,0,0,0,0,0,0,0,0,0,0,0,0,0,0,0,0,200,204,50,50,50,50,50,50,50,50,50,50,50,50,50,50,50,50,50,50,50,50,50,50,50,50,50,50,50,50,50,67,0,0,0,0,0,0,0,0,0,0,0,0,0,0,0,0,0,0,0,0,0,0,0,0,0,0,0,0,0,0,0,0,0,0,0,0,0,0,0,0,0,0,0,0,0,0,0,0,0,0,0,0,0,0,0,0,0,0,0,0,49,50,49,50,51,49,50,51,49,50,51,49,50,51,35,36,37,0,0,0,0,0,0,0,0,0,0,0,0,0,0,0,0,0,0,0,0,0,0,0,0,0,0,0,0,0,0,0,0,0,0,0,0,0,0,0,0,0,0,0,0,0,0,0,0,0,0,0,0,0,0,68,38,39,0,0,0,0,35,36,53,68,0,0,0,0,0,0,0,49,51,68,0,0,63,64,65,0,0,0,0,0,0,0,0,0,0,0,0,0,0,0,0,0,0,0,0,0,0,52,37,68,0,0,0,0,0,0,0,0,0,0,0,0,0,0,0,0,0,0,0,35,37,54,68,57,67,0,0,0,0,0,0,0,0,0,0,0,52,36,53,68,66,65,0,0,0,0,0,0,0,0,54,54,49,51,35,37,0,0,0,0,
0,0,0,0,0,0,0,0,0,0,0,0,0,0,0,0,0,0,0,0,0,0,0,0,0,0,0,0,50,50,50,50,50,50,50,50,50,50,50,50,50,50,50,50,50,50,50,50,50,50,50,50,50,50,36,36,36,53,0,0,0,0,0,0,0,0,0,0,0,0,0,0,0,0,0,0,0,0,0,0,0,0,0,0,0,0,0,0,0,0,0,0,0,0,0,0,0,0,0,0,0,0,0,0,0,0,0,0,0,0,0,0,0,0,0,0,0,0,63,64,63,64,65,63,64,65,63,64,65,63,64,65,49,50,51,0,0,0,0,0,0,0,0,0,0,0,0,0,0,0,0,0,0,0,0,0,0,0,0,0,0,0,0,0,0,0,0,0,0,0,0,0,0,0,0,0,0,0,0,0,0,0,0,0,0,0,52,37,52,36,53,54,0,0,0,0,66,64,67,54,0,0,0,0,0,0,0,49,51,0,0,0,0,52,36,53,0,0,0,0,0,0,0,0,0,0,0,0,0,0,0,0,0,0,0,0,0,57,67,0,0,0,0,0,0,0,0,0,0,0,0,0,0,0,0,0,0,0,0,49,51,68,0,0,0,0,0,0,0,0,0,0,0,0,0,0,63,50,51,52,53,0,0,0,0,0,0,0,0,0,68,68,66,67,49,51,38,39,0,0,
0,0,0,0,0,0,0,0,0,0,0,0,0,0,0,0,0,0,0,0,0,0,0,0,0,0,0,50,50,50,50,50,50,50,50,50,50,50,50,50,50,50,50,50,50,50,50,50,50,50,50,50,50,50,50,50,50,67,0,0,0,182,0,0,0,0,0,0,0,0,0,0,0,0,0,0,0,0,0,0,0,0,0,0,0,0,0,0,0,0,0,0,0,0,0,0,0,0,0,0,0,0,0,0,0,0,0,0,0,0,0,0,0,0,0,0,0,35,36,37,37,35,35,36,37,35,36,37,35,35,36,37,63,64,65,0,0,0,0,0,0,0,0,0,0,0,0,0,0,0,0,0,0,0,0,0,0,0,0,0,0,0,0,0,0,0,0,0,0,0,0,0,0,0,0,0,0,0,0,0,0,0,0,0,0,54,49,51,57,64,67,68,0,0,0,0,52,53,54,68,0,0,0,0,0,0,0,49,51,0,0,0,0,63,50,51,0,0,0,0,0,0,0,0,0,0,0,0,0,0,0,0,0,0,0,0,0,0,0,0,0,0,0,0,0,0,0,0,0,0,0,0,0,0,0,0,0,0,0,49,51,0,0,0,0,0,0,0,0,0,0,0,0,0,0,52,37,66,65,66,51,0,0,0,0,0,0,0,0,0,0,35,37,54,49,51,54,52,53,0,
0,0,0,0,0,0,0,0,0,0,0,0,0,0,0,0,0,0,0,0,0,0,0,0,0,0,0,50,50,50,50,50,50,50,50,50,50,50,50,50,50,50,50,50,50,50,50,50,50,50,50,50,50,50,36,36,36,53,0,0,0,0,0,0,0,0,0,0,0,0,0,0,0,0,0,0,0,0,0,0,0,0,0,0,0,0,0,0,0,0,0,0,0,0,0,0,0,0,0,0,0,0,0,0,0,0,0,0,0,0,0,0,0,0,0,0,0,49,50,51,51,49,49,50,51,49,50,51,49,49,50,51,35,36,37,0,0,0,0,0,0,0,0,0,0,0,0,0,0,0,0,0,0,0,0,0,0,0,0,0,0,0,0,0,0,0,0,0,0,0,0,0,0,0,0,0,0,0,0,0,0,0,0,52,37,68,66,67,54,35,36,53,0,0,0,0,49,51,68,0,0,0,0,0,0,0,0,66,65,0,0,0,0,0,49,51,0,0,0,0,0,0,0,0,0,0,0,0,0,0,0,0,0,0,0,0,0,0,0,0,0,0,0,0,0,0,0,0,0,0,0,0,0,0,0,0,0,0,0,63,65,0,0,0,0,0,0,0,0,0,0,0,0,0,0,49,51,54,35,53,68,0,0,0,0,0,0,0,0,0,0,63,65,68,57,67,68,66,67,0
</data>
 </layer>
 <layer id="3" name="background" width="300" height="20">
  <data encoding="csv">
0,0,0,0,0,0,0,0,0,0,0,0,0,0,0,0,0,0,0,0,0,0,0,0,0,0,0,0,0,0,0,0,0,0,0,0,0,0,0,0,0,0,0,0,0,0,0,0,0,0,0,0,0,0,0,0,0,0,0,0,0,0,0,0,0,0,0,0,0,0,0,0,0,0,0,0,0,0,0,0,0,0,0,0,0,0,394,0,394,0,0,0,394,0,0,394,0,0,0,0,0,0,0,0,0,0,0,0,0,0,0,0,0,0,0,0,0,0,0,0,0,0,0,0,0,0,0,0,0,0,0,0,0,0,0,0,0,0,0,0,0,0,0,0,0,0,0,0,0,0,0,0,0,0,0,0,0,0,0,0,0,0,0,0,0,0,0,0,0,0,0,0,0,0,0,0,0,0,0,0,0,0,0,0,0,0,0,0,0,0,0,0,0,0,0,0,0,0,0,0,0,0,0,0,0,0,0,0,0,0,0,0,0,0,0,0,0,0,0,0,0,0,0,0,0,0,0,0,0,0,0,0,0,0,0,0,0,0,0,0,0,0,0,0,0,0,0,0,0,0,0,0,0,0,0,0,0,0,0,0,0,0,0,0,0,0,0,0,0,0,0,0,0,0,0,0,0,0,0,0,0,0,0,0,0,0,0,0,0,0,0,0,0,0,0,0,0,0,0,0,
0,0,0,0,0,0,0,0,0,0,0,0,0,0,0,0,0,0,0,0,0,0,0,0,0,0,0,0,0,0,0,0,0,0,0,0,0,0,0,0,0,0,0,0,0,0,0,0,0,0,0,0,0,0,0,0,0,0,0,0,0,0,0,0,0,0,0,0,0,0,0,0,0,0,0,0,0,0,0,0,0,0,0,0,0,0,412,0,412,0,0,0,394,0,0,394,0,0,0,0,0,0,0,343,0,0,0,0,0,0,0,0,0,0,0,0,0,0,0,0,0,0,0,0,0,0,0,0,0,0,0,0,0,0,0,0,0,0,0,0,0,0,0,0,0,0,0,0,0,0,0,0,0,0,0,0,0,0,0,0,0,0,0,0,0,0,0,0,0,0,0,0,0,0,0,0,0,0,0,0,0,0,0,0,0,0,0,0,0,0,0,0,0,0,0,0,0,0,0,0,0,0,0,0,0,0,0,0,0,0,0,0,0,0,0,0,0,0,0,0,0,0,0,0,0,0,0,0,0,0,0,0,0,0,0,0,0,0,0,0,0,0,0,0,0,0,0,0,0,0,0,0,0,0,0,0,0,0,0,0,0,0,0,0,0,0,0,0,0,0,0,0,0,0,0,0,0,0,0,0,0,0,0,0,0,0,0,0,0,0,0,0,0,0,0,0,0,0,0,0,
0,0,0,0,0,0,0,0,0,0,0,0,0,0,0,0,0,0,0,0,0,0,0,0,0,0,0,0,0,0,0,0,0,0,0,0,0,0,0,0,0,0,0,0,0,0,0,0,0,0,0,0,0,0,0,0,0,0,0,0,0,0,0,0,0,0,0,0,0,0,0,0,0,0,0,0,0,0,0,0,0,0,0,0,0,0,430,0,394,0,0,0,412,0,0,412,0,0,0,0,0,0,0,361,0,0,0,0,0,0,0,0,0,0,0,0,0,0,0,0,0,0,0,0,0,0,0,0,0,0,0,0,0,0,0,0,0,0,0,0,0,0,0,0,0,0,0,0,0,0,0,0,0,0,0,0,0,0,0,0,0,0,0,0,0,0,0,0,0,0,0,0,0,0,0,0,0,0,0,0,0,0,0,0,0,0,0,0,0,0,0,0,0,0,0,0,0,0,0,0,0,0,0,0,0,0,0,0,0,0,0,0,0,0,0,0,0,0,0,0,0,0,0,0,0,0,0,0,0,0,0,0,0,0,0,0,0,0,0,0,0,0,0,0,0,0,0,0,0,0,0,0,0,0,0,0,0,0,0,0,0,0,0,0,0,0,0,0,0,0,0,0,0,0,0,0,0,0,0,0,0,0,0,0,0,0,0,0,0,0,0,0,0,0,0,35,36,37,35,36,
0,0,0,0,0,0,0,0,0,0,0,0,0,0,0,0,0,0,0,0,0,0,0,0,0,0,0,0,0,0,0,0,0,0,0,0,0,0,0,0,0,0,0,0,0,0,0,0,0,0,0,0,0,0,0,0,0,0,0,0,0,0,0,0,0,0,0,0,0,0,0,0,0,0,0,0,0,0,0,0,0,0,0,0,0,0,0,0,412,0,0,0,430,0,0,430,0,0,0,0,0,0,0,379,0,0,0,0,343,0,0,0,0,0,0,0,0,0,0,0,0,0,0,0,0,0,0,0,0,0,0,0,0,0,0,0,0,0,0,0,0,0,0,0,0,0,0,0,0,0,0,0,0,0,0,0,0,0,0,0,0,0,0,0,73,0,256,257,0,0,0,0,0,0,0,0,0,0,0,0,0,0,0,0,0,0,0,0,0,0,0,0,0,0,0,0,0,0,0,0,0,0,0,0,0,0,0,0,0,0,0,0,0,0,0,0,0,0,0,0,0,0,0,0,0,0,0,0,0,0,0,0,0,0,0,0,0,0,0,0,0,0,0,0,0,0,0,0,0,0,0,0,0,0,0,0,0,0,0,0,0,0,0,0,0,0,0,0,0,0,0,0,0,0,0,0,0,0,0,0,0,0,0,0,0,0,0,0,0,0,0,0,0,0,0,49,50,51,49,50,
0,0,0,0,0,0,0,0,0,0,0,0,0,0,0,0,0,0,0,0,0,0,186,187,0,0,0,0,0,0,0,172,173,0,0,0,0,0,0,0,0,0,0,0,0,0,0,0,0,0,0,0,0,0,0,0,0,0,0,0,0,0,0,0,0,0,0,0,0,0,0,0,0,0,0,0,0,0,0,0,0,0,0,0,0,0,0,0,430,0,0,0,427,0,0,430,0,0,0,0,46,47,46,47,425,426,0,0,379,0,0,0,0,0,0,0,0,0,0,0,0,0,0,0,0,0,0,116,117,0,0,0,0,0,0,0,0,0,0,0,0,0,0,0,0,0,0,0,0,0,0,0,0,0,0,0,0,0,0,0,0,0,0,0,0,0,270,271,0,0,0,0,0,0,0,0,0,0,0,0,0,0,0,0,239,240,241,0,0,0,0,0,0,0,0,0,0,0,0,0,0,0,0,0,0,0,0,0,0,0,0,0,0,0,0,0,0,0,0,0,0,0,0,0,0,0,0,0,0,0,0,0,0,0,0,0,0,0,0,0,0,0,0,0,0,0,0,0,0,0,0,0,0,0,0,0,0,0,0,0,0,169,169,170,185,0,0,0,0,0,0,0,0,0,0,0,0,0,0,0,0,0,0,0,0,0,0,0,0,0,0,0,0,0,0,63,64,65,63,64,
0,0,0,0,0,0,0,0,0,0,0,0,0,0,0,0,0,0,0,0,0,0,200,201,0,0,0,0,0,0,0,0,0,0,0,0,0,0,0,0,0,0,0,0,0,0,0,0,0,0,0,0,0,0,0,0,0,0,0,0,0,0,0,0,0,0,0,0,0,0,0,0,0,0,0,0,0,0,0,0,0,0,0,0,0,0,0,427,427,427,0,0,0,0,0,427,0,0,0,0,60,50,48,46,47,46,47,46,33,0,0,0,0,0,0,0,0,0,0,0,0,0,0,0,0,0,0,130,131,107,0,0,0,0,0,0,0,0,0,0,0,0,0,0,0,0,0,0,0,0,0,0,0,0,0,0,0,0,0,0,0,0,0,0,0,0,0,0,0,0,0,0,0,0,0,256,257,0,0,0,0,0,0,0,253,254,255,0,0,0,0,0,0,0,0,0,0,0,0,0,0,0,0,0,0,0,0,0,0,0,0,0,0,0,0,0,0,0,0,0,0,0,0,0,0,0,0,0,0,0,0,0,0,0,0,0,0,0,0,0,0,0,0,0,0,0,0,0,0,0,0,0,0,0,0,0,0,0,169,169,170,171,169,184,194,0,0,0,0,0,0,0,0,0,0,0,0,0,0,0,0,0,0,0,0,0,0,0,0,0,0,0,0,0,0,0,0,0,0,0,
0,0,0,0,0,0,0,0,0,0,0,0,0,0,0,0,0,0,0,0,0,0,0,0,0,0,172,173,0,0,0,0,0,0,0,0,0,0,0,0,0,0,0,0,0,0,0,0,0,0,0,0,0,0,0,0,0,0,0,0,0,0,0,0,0,0,0,0,0,0,0,0,0,0,0,0,0,0,0,0,0,0,0,0,0,0,0,0,0,0,0,0,0,0,0,0,0,0,0,0,0,49,62,48,35,36,37,52,39,46,47,408,0,0,0,0,0,158,159,0,0,0,0,0,0,0,0,0,119,120,107,0,0,0,0,0,0,0,0,0,0,0,0,0,0,0,0,0,0,0,0,0,0,0,0,0,0,0,0,0,0,0,0,0,0,0,0,0,0,0,230,0,0,0,0,270,271,0,0,0,0,0,0,0,267,268,269,0,0,0,0,0,0,0,0,0,0,0,0,0,0,0,0,0,0,0,0,0,0,0,0,0,0,0,0,0,0,0,0,0,0,0,0,0,0,0,0,0,0,0,0,0,0,0,0,0,0,0,0,0,0,0,0,0,0,0,0,0,0,0,0,0,0,0,169,169,170,185,171,171,171,192,176,176,177,0,0,0,0,0,0,0,0,0,0,0,0,0,0,0,0,0,0,0,0,0,0,284,285,286,0,0,0,0,284,285,286,0,0,0,
0,0,0,0,0,0,0,0,0,0,0,0,0,0,0,0,0,0,0,0,0,0,0,0,0,0,0,0,0,0,0,0,0,0,0,0,0,0,0,0,0,0,0,0,0,0,282,0,0,0,0,0,0,0,0,0,0,0,0,0,0,0,0,0,0,0,0,0,0,343,0,0,0,0,0,0,0,0,0,0,0,0,0,0,0,0,0,0,0,0,0,0,0,0,0,0,0,0,0,0,0,60,50,62,49,50,51,52,54,32,47,54,0,0,0,0,0,0,0,0,0,0,0,0,0,0,0,0,133,134,135,0,0,0,0,0,0,0,0,0,0,0,0,0,0,0,0,0,0,0,0,0,0,0,0,0,0,0,0,0,0,0,0,0,0,0,0,0,0,0,0,0,0,0,0,0,0,0,0,0,0,0,0,0,0,0,0,0,0,0,0,0,0,0,0,0,0,0,0,0,0,0,0,0,0,0,0,0,0,0,0,0,0,0,0,0,0,0,0,0,0,284,285,286,0,0,0,0,0,0,0,0,0,0,0,0,0,0,0,0,0,0,0,0,0,0,0,0,0,0,169,169,170,171,185,185,192,176,176,176,177,189,190,190,191,0,0,284,285,286,0,0,0,0,0,0,0,0,0,0,0,0,0,0,0,0,0,302,303,304,0,0,0,0,302,303,304,0,0,0,
0,0,0,0,0,0,0,0,0,0,0,0,0,0,0,0,0,0,0,0,0,0,0,0,0,0,0,0,0,0,0,0,0,0,0,0,300,0,0,0,0,0,0,0,0,0,300,0,0,0,0,0,0,0,0,0,0,0,0,0,0,0,0,0,0,0,0,0,0,361,0,0,0,0,0,0,0,0,0,0,0,0,0,0,0,0,0,0,0,0,0,0,0,0,0,0,0,0,0,0,0,0,49,50,63,64,65,68,68,38,61,46,47,54,48,48,48,46,46,47,46,47,46,47,46,47,46,47,46,47,46,47,46,47,46,47,0,0,0,0,0,0,0,0,0,0,0,0,0,0,0,0,0,0,0,0,0,0,0,0,0,0,0,0,0,0,0,0,0,0,0,0,0,0,0,0,0,0,0,0,0,0,0,0,0,0,0,0,0,0,0,0,0,0,0,0,0,0,0,0,0,0,0,0,0,0,0,0,0,0,0,0,0,0,0,0,0,0,0,0,0,302,303,304,0,0,0,0,0,0,0,0,0,0,0,0,0,0,0,0,0,0,0,0,0,0,0,169,169,170,185,185,171,192,176,177,189,190,191,189,190,190,190,190,191,0,0,302,303,304,0,0,0,0,0,0,0,0,0,0,0,0,0,0,0,0,0,320,321,322,0,0,0,0,320,321,322,0,0,0,
0,0,0,0,0,0,0,0,0,0,0,0,0,0,0,0,0,0,0,0,0,0,0,0,0,0,0,0,0,0,0,0,0,0,0,0,318,0,0,300,0,373,0,301,0,0,318,0,0,0,0,0,0,0,0,0,0,0,0,0,0,0,0,343,0,0,0,0,0,379,0,0,0,0,0,0,0,0,0,0,0,0,0,0,0,0,0,0,0,0,0,0,0,0,0,0,0,0,0,0,0,0,63,50,50,54,54,52,54,52,53,35,37,68,38,39,50,49,60,61,60,61,60,61,60,61,60,61,60,61,60,61,60,61,60,61,0,0,0,0,0,0,0,0,0,0,0,0,0,0,0,0,0,0,0,0,0,0,0,0,0,0,0,0,0,0,0,0,0,0,0,0,0,0,0,0,0,0,0,0,0,0,0,0,0,0,0,0,0,0,45,29,30,0,0,0,0,239,240,241,0,0,0,0,0,0,0,0,0,0,0,0,0,0,0,0,0,0,0,0,0,320,321,322,0,0,0,0,0,284,285,286,0,0,0,0,0,0,0,0,0,0,0,169,169,170,185,171,192,176,176,176,177,189,190,191,189,190,191,189,190,190,190,190,191,0,0,320,321,322,0,0,0,0,0,0,0,0,0,0,0,0,0,0,0,0,0,338,339,340,0,0,0,0,338,339,340,0,0,0,
0,0,0,0,0,284,285,286,0,0,0,284,285,286,0,0,0,0,0,0,0,0,0,0,0,0,0,0,0,0,0,0,0,0,0,0,336,0,0,336,0,29,30,45,31,301,336,0,301,301,301,0,0,0,0,0,0,0,0,0,0,0,0,379,0,0,0,0,0,0,0,0,0,0,0,343,0,0,0,0,0,0,0,0,0,0,0,0,0,0,0,0,0,0,0,0,0,0,0,0,0,0,0,49,36,37,68,49,63,64,65,49,58,50,38,39,50,63,65,54,35,36,37,35,36,37,35,36,37,35,36,37,35,36,37,0,0,0,0,0,0,0,0,0,0,0,0,0,0,0,0,0,0,0,0,0,0,0,0,0,0,0,0,0,29,30,45,45,45,0,0,0,0,0,0,0,0,0,0,0,0,0,0,0,29,30,29,30,29,30,38,36,53,0,0,0,0,253,254,255,0,0,0,0,0,0,0,0,0,0,0,0,0,0,0,0,0,0,0,0,0,0,339,0,0,391,0,0,0,302,303,304,0,0,0,0,0,0,0,0,0,185,169,170,192,176,176,193,189,190,190,190,191,189,190,191,189,190,191,189,190,190,190,190,191,0,0,0,339,0,0,0,0,0,0,0,0,0,0,0,0,0,0,0,0,0,0,45,31,29,30,45,31,31,45,29,30,0,0,0,
0,0,0,0,0,302,303,304,0,0,0,302,303,304,0,0,0,0,0,0,0,0,0,0,0,0,0,43,44,31,45,45,43,44,43,44,45,45,31,45,31,45,31,29,30,31,31,31,35,53,29,30,29,30,43,44,29,30,0,0,0,0,0,0,0,0,0,0,0,0,0,0,0,0,343,361,0,0,0,0,0,0,0,0,0,0,0,0,0,0,0,0,0,0,0,0,0,0,0,0,0,0,0,63,64,35,36,37,65,54,54,63,64,65,37,52,53,49,50,51,49,50,51,49,50,51,49,50,51,49,50,51,49,50,51,0,0,0,0,0,0,0,0,0,0,0,0,0,0,0,0,0,0,0,0,0,0,0,0,0,0,0,29,30,45,31,45,45,31,45,31,45,29,30,45,31,29,30,45,31,45,45,45,45,52,37,31,54,35,53,39,66,58,0,0,0,0,267,268,269,0,0,0,0,0,0,0,0,0,0,0,0,0,0,0,0,0,0,0,0,0,0,0,0,0,0,0,0,0,320,321,322,0,0,421,422,423,0,0,169,171,178,179,178,204,204,204,205,200,204,204,204,207,197,204,204,204,198,198,200,204,204,204,204,201,0,0,0,0,0,0,0,0,0,0,0,0,0,0,0,0,0,0,0,0,0,0,57,35,36,36,36,36,36,37,38,39,45,0,0,
0,0,0,0,0,320,321,322,0,0,0,320,321,322,0,0,0,0,0,0,0,0,0,0,0,0,0,35,36,53,38,39,50,38,39,38,39,38,39,50,52,53,50,50,50,45,38,39,57,58,36,36,36,53,49,51,31,29,30,29,30,0,0,0,0,0,0,0,0,0,0,0,0,0,379,379,0,0,0,0,0,0,0,0,0,0,0,0,0,0,0,0,0,0,0,0,0,0,0,0,0,0,0,0,54,49,50,51,54,68,68,63,49,50,51,52,53,63,35,36,63,35,36,63,35,36,63,35,36,63,35,36,63,64,65,0,0,0,0,0,0,0,0,0,0,0,0,0,0,0,0,0,0,0,0,0,0,0,0,0,0,31,52,36,37,35,37,54,38,39,54,35,53,35,36,53,35,53,38,39,45,45,29,30,63,65,38,61,63,65,54,54,0,0,0,0,0,0,0,0,0,0,0,214,215,0,0,0,239,240,241,0,0,0,0,214,215,0,0,0,0,0,0,0,0,0,0,0,0,338,339,340,0,0,439,440,441,0,0,0,0,0,0,0,0,0,0,0,0,0,0,0,0,0,0,0,0,0,0,0,0,0,0,0,0,0,0,0,0,0,0,0,0,0,0,0,0,0,0,0,0,0,0,0,0,0,0,0,57,64,64,64,64,64,58,35,37,54,52,37,
0,0,0,391,0,338,339,340,301,301,0,338,339,340,0,0,0,0,0,0,0,0,0,0,0,0,0,57,50,51,52,36,53,35,37,54,50,54,54,50,63,65,38,39,52,36,39,38,39,38,64,64,50,51,57,67,54,54,394,0,394,0,0,0,0,0,0,0,0,0,0,0,0,0,0,0,0,0,0,0,0,0,0,0,0,0,0,0,0,0,0,0,0,0,0,0,0,0,0,0,0,0,0,0,68,63,64,65,68,52,36,37,63,64,65,52,52,53,49,50,51,49,50,51,49,50,51,49,50,51,49,50,51,0,0,0,0,0,0,0,0,0,0,0,0,0,0,0,0,0,0,0,0,0,0,0,0,0,0,0,29,30,63,64,67,57,67,68,38,39,68,63,65,63,64,65,63,65,38,39,54,35,36,37,54,54,35,37,52,53,68,68,0,0,0,0,0,0,0,0,0,0,0,0,0,0,0,0,253,254,255,0,0,0,0,0,0,0,0,0,0,0,0,0,0,0,0,0,0,0,0,0,0,0,0,0,0,0,0,0,0,0,0,0,0,0,0,0,0,0,0,0,0,0,0,0,0,0,0,0,0,0,0,0,0,0,0,0,0,0,0,0,0,0,0,0,0,0,0,0,0,0,0,0,0,0,0,0,38,39,38,39,52,36,53,49,51,68,49,51,
0,0,0,0,0,0,0,0,0,0,0,0,0,0,0,0,0,0,0,0,0,0,0,0,0,0,0,0,66,67,57,50,51,66,58,68,50,68,60,39,54,35,36,37,57,64,35,36,36,37,54,50,63,58,54,38,61,68,412,0,412,0,0,0,0,0,0,0,0,0,0,0,0,0,0,0,0,0,0,0,0,0,0,0,0,0,0,0,0,0,0,0,0,0,0,0,0,0,0,0,0,0,0,0,52,37,54,38,39,57,64,65,49,50,51,66,52,53,63,64,65,63,64,65,63,64,65,63,64,65,63,64,65,0,0,0,0,0,0,0,0,0,0,0,0,0,0,0,0,0,0,0,0,0,0,0,0,0,0,0,54,52,36,36,37,35,37,38,39,52,53,54,54,38,39,38,39,35,53,54,68,63,50,51,68,68,57,58,66,67,0,0,0,0,0,0,0,0,0,0,0,0,0,0,0,0,0,0,267,268,269,0,0,0,0,0,0,0,0,0,0,0,0,0,0,0,0,0,0,0,0,0,0,0,0,0,0,0,0,0,0,0,0,0,0,0,0,0,0,0,0,0,0,0,0,0,0,0,0,0,0,0,0,0,0,350,0,351,0,349,0,0,0,0,0,0,0,0,0,0,0,0,0,0,0,0,0,0,0,0,0,0,57,64,65,57,51,54,49,51,
0,0,0,0,0,0,0,0,0,0,0,0,0,0,0,0,0,0,0,0,0,0,0,0,0,0,0,52,37,54,54,49,51,38,39,38,37,50,52,37,68,63,64,58,38,39,63,64,64,67,68,38,39,54,68,0,54,0,430,0,430,0,0,0,0,0,0,0,0,0,0,0,0,0,0,0,0,0,0,0,0,0,0,0,0,0,0,0,0,0,0,0,0,0,0,0,0,0,0,0,0,0,0,0,49,51,68,54,38,39,52,36,63,64,65,67,52,53,0,0,0,0,0,0,0,0,0,0,0,0,0,0,0,0,0,0,0,0,0,0,0,0,0,0,0,0,0,0,0,0,0,0,0,0,0,0,0,0,0,0,68,63,64,64,67,63,58,52,53,49,51,68,68,54,52,37,54,49,51,68,35,53,63,58,54,52,37,52,53,0,0,0,0,0,0,0,0,0,0,0,0,0,0,0,0,0,0,0,0,0,0,0,0,0,0,0,0,0,0,0,0,0,0,0,0,0,0,0,0,0,0,0,0,0,0,0,0,0,0,0,0,0,0,0,0,0,0,0,0,0,0,0,0,0,0,0,0,0,0,0,0,0,0,0,0,350,0,0,0,349,0,0,0,0,0,0,0,0,0,0,0,0,0,0,0,0,0,0,0,0,0,0,0,0,52,53,68,68,49,51,
0,0,0,0,0,0,0,0,0,0,0,0,0,0,0,0,0,0,0,0,0,0,0,0,0,0,0,49,51,68,68,57,65,50,38,39,68,54,49,51,54,35,37,52,36,37,38,39,50,54,54,52,53,68,0,0,68,0,394,0,394,0,0,0,0,0,0,0,0,0,0,0,0,0,0,0,0,0,0,0,0,0,0,0,0,0,0,0,0,0,0,0,0,0,0,0,0,0,0,0,0,0,0,0,63,47,54,68,52,37,57,50,51,52,37,52,53,53,0,0,0,0,0,0,0,0,0,0,0,0,0,0,0,0,0,0,0,0,0,0,0,0,0,0,0,0,0,0,0,0,0,0,0,0,0,0,0,0,0,0,35,53,52,53,54,38,37,49,51,49,51,54,38,61,49,51,68,57,58,54,49,51,52,53,68,63,58,57,67,0,0,0,0,0,0,0,0,0,0,0,0,0,0,0,0,0,0,0,0,0,0,0,0,0,0,0,0,0,0,0,0,0,0,0,0,0,0,0,0,0,0,0,0,0,0,0,0,0,0,0,0,0,0,0,0,0,0,0,0,0,0,0,0,0,0,0,0,0,0,0,0,0,0,0,0,350,0,0,0,351,0,0,0,0,0,0,0,0,0,0,0,0,0,0,0,0,0,0,0,0,0,0,0,0,57,65,38,39,49,51,
0,0,0,0,0,0,0,0,0,0,0,0,0,0,0,0,0,0,0,0,0,0,0,0,0,0,0,63,65,52,53,54,50,38,39,50,38,61,66,65,68,49,51,63,50,51,52,37,54,68,68,57,58,54,0,0,0,0,412,0,412,0,0,0,0,0,0,0,0,0,0,0,0,0,0,0,0,0,0,0,0,0,0,0,0,0,0,0,0,0,0,0,0,0,0,0,0,0,0,0,0,0,0,0,49,68,68,35,36,37,39,57,67,49,51,52,53,67,0,0,0,0,0,0,0,0,0,0,0,0,0,0,0,0,0,0,0,0,0,0,0,0,0,0,0,0,0,0,0,0,0,0,0,0,0,0,0,0,0,0,57,65,63,65,60,39,68,57,58,63,67,68,38,39,66,65,54,38,39,68,63,67,63,58,52,53,0,0,0,0,0,0,0,0,0,0,0,0,0,0,0,0,0,0,0,0,0,0,0,0,0,0,0,0,0,0,0,0,0,0,0,0,0,0,0,0,0,0,0,0,0,0,0,0,0,0,0,0,0,0,0,0,0,0,0,0,0,0,0,0,0,0,0,0,0,0,0,0,0,0,0,0,0,0,0,350,0,0,0,0,0,0,0,0,0,0,0,0,0,0,0,0,0,0,0,0,0,0,0,0,0,0,0,0,0,0,52,37,49,51,
0,0,0,0,0,0,0,0,0,0,0,0,0,0,0,0,0,0,0,0,0,0,0,0,0,0,0,54,35,66,65,68,35,36,36,53,35,36,36,36,37,49,51,50,66,58,63,58,68,50,54,54,35,51,0,0,0,0,430,0,430,0,194,0,0,0,0,0,0,0,0,0,0,0,0,0,0,0,0,0,0,0,0,0,0,0,0,0,0,0,0,0,0,0,0,0,0,0,0,0,0,0,0,0,49,38,39,49,50,51,39,54,54,49,51,53,53,0,0,0,0,0,0,0,0,0,0,0,0,0,0,0,0,0,0,0,0,0,0,0,0,0,0,0,0,0,0,0,0,0,0,0,0,0,0,0,0,0,0,0,52,37,54,54,52,37,35,53,35,53,54,54,54,52,37,35,51,54,52,36,36,53,52,53,57,58,0,0,0,0,0,0,0,0,0,0,0,0,0,0,0,0,0,0,0,0,0,0,0,0,0,0,0,0,0,0,0,0,0,0,0,0,0,0,0,0,0,0,0,0,0,0,0,0,0,0,0,0,0,0,0,0,0,0,0,0,0,0,0,0,0,0,0,0,0,0,0,0,0,0,0,0,0,0,0,350,0,0,0,0,0,0,0,0,0,0,0,0,0,0,0,0,0,0,0,0,0,0,0,0,0,0,0,0,0,0,63,65,49,51,
0,0,0,0,0,0,0,0,0,0,0,0,0,0,0,0,0,0,0,0,0,0,0,0,0,0,0,68,57,50,54,54,57,64,64,58,57,64,64,64,58,63,58,38,39,38,39,54,54,38,61,68,57,65,36,36,36,37,427,427,427,427,208,0,0,0,0,0,0,0,0,0,0,0,0,0,0,0,0,0,0,0,0,0,0,0,0,0,0,0,0,0,0,0,0,0,0,0,0,0,0,0,0,0,49,66,67,63,64,65,39,68,60,66,58,67,67,0,0,0,0,0,0,0,0,0,0,0,0,0,0,0,0,0,0,0,0,0,0,0,0,0,0,0,0,0,0,0,0,0,0,0,0,0,0,0,0,0,0,0,66,65,68,68,66,65,63,65,57,58,68,68,68,63,67,63,67,68,57,64,64,67,63,58,0,0,0,0,0,0,0,0,0,0,0,0,0,0,0,0,0,0,0,0,0,0,0,0,0,0,0,0,0,0,0,0,0,0,0,0,0,0,0,0,0,0,0,0,0,0,0,0,0,0,0,0,0,0,0,0,0,0,0,0,0,0,0,0,0,0,0,0,0,0,0,0,0,0,0,0,0,0,0,0,0,350,0,0,0,0,0,0,0,0,0,0,0,0,0,0,0,0,0,0,0,0,0,0,0,0,0,0,0,0,0,0,0,0,57,58
</data>
 </layer>
 <layer id="1" name="foreground" width="300" height="20">
  <data encoding="csv">
0,0,0,0,0,0,0,0,0,0,0,0,0,0,0,0,0,0,0,0,0,0,0,0,0,0,0,0,0,0,0,0,0,0,0,0,0,0,0,0,0,0,0,0,0,0,0,0,0,0,0,0,0,0,0,0,0,0,0,0,0,0,0,0,0,0,0,0,0,0,0,0,0,0,0,0,0,0,0,0,0,0,0,0,0,0,0,0,0,0,0,0,0,0,0,0,0,0,0,0,0,0,0,0,0,0,0,0,0,0,0,0,0,0,0,0,0,0,0,0,0,0,0,0,0,0,0,0,0,0,0,0,0,0,0,0,0,0,0,0,0,0,0,0,0,0,0,0,0,0,0,0,0,0,0,0,0,0,0,0,0,0,0,0,0,0,0,0,0,0,0,0,0,0,0,0,0,0,0,0,0,0,0,0,0,0,0,0,0,0,0,0,0,0,0,0,0,0,0,0,0,0,0,0,0,0,0,0,0,0,0,0,0,0,0,0,0,0,0,0,0,0,0,0,0,0,0,0,0,0,0,0,0,0,0,0,0,0,0,0,0,0,0,0,0,0,0,0,0,0,0,0,0,0,0,0,0,0,0,0,0,0,0,0,0,0,0,0,0,0,0,0,0,0,0,0,0,0,0,0,0,0,0,0,0,0,0,0,0,0,0,0,0,0,0,0,0,0,0,0,
0,0,0,0,0,0,0,0,0,0,0,0,0,0,0,0,0,0,0,0,0,0,0,0,0,0,0,0,0,0,0,0,0,0,0,0,0,0,0,0,0,0,0,0,0,0,0,0,0,0,0,0,0,0,0,0,0,0,0,0,0,0,0,0,0,0,0,0,0,0,0,0,0,0,0,0,0,0,0,0,0,0,0,0,0,0,0,0,0,0,0,0,0,0,0,0,0,0,0,0,0,0,0,0,0,0,0,0,0,0,0,0,0,0,0,0,0,0,0,0,0,0,0,0,0,0,0,0,0,0,0,0,0,0,0,0,0,0,0,0,0,0,0,0,0,0,0,0,0,0,0,0,0,0,0,0,0,0,0,0,0,0,0,0,0,0,0,0,0,0,0,0,0,0,0,0,0,0,0,0,0,0,0,0,0,0,0,0,0,0,0,0,0,0,0,0,0,0,0,0,0,0,0,0,0,0,0,0,0,0,0,0,0,0,0,0,0,0,0,0,0,0,0,0,0,0,0,0,0,0,0,0,0,0,0,0,0,0,0,0,0,0,0,0,0,0,0,0,0,0,0,0,0,0,0,0,0,0,0,0,0,0,0,0,0,0,0,0,0,0,0,0,0,0,0,0,0,0,0,0,0,0,0,0,0,0,0,0,0,0,0,0,0,0,0,0,0,0,0,0,
0,0,0,0,0,0,0,0,0,0,0,0,0,0,0,0,0,0,0,0,0,0,0,0,0,0,0,0,0,0,0,0,0,0,0,0,0,0,0,0,0,0,0,0,0,0,0,0,0,0,0,0,0,0,0,0,0,0,0,0,0,0,0,0,0,0,0,0,0,0,0,0,0,0,0,0,0,0,0,0,0,0,0,0,0,0,0,0,0,0,0,0,0,0,0,0,0,0,0,0,0,0,0,0,0,0,0,0,0,0,0,0,0,0,0,0,0,0,0,0,0,0,0,0,0,0,0,0,0,0,0,0,0,0,0,0,0,0,0,0,0,0,0,0,0,0,0,0,0,0,0,0,0,0,0,0,0,0,0,0,0,0,0,0,0,0,0,0,0,0,0,0,0,0,0,0,0,0,0,0,0,0,0,0,0,0,0,0,0,0,0,0,0,0,0,0,0,0,0,0,0,0,0,0,0,0,0,0,0,0,0,0,0,0,0,0,0,0,0,0,0,0,0,0,0,0,0,0,0,0,0,0,0,0,0,0,0,0,0,0,0,0,0,0,0,0,0,0,0,228,229,0,0,0,0,0,0,0,0,0,0,0,0,0,0,0,0,0,0,0,0,0,0,0,0,0,0,0,0,0,0,0,0,0,0,0,0,0,0,0,0,0,0,0,0,0,0,0,0,0,
0,0,0,0,0,0,0,0,0,0,0,0,0,0,0,0,0,0,0,0,0,0,0,0,0,0,0,0,0,0,0,0,0,0,0,0,0,0,0,0,0,0,0,0,0,0,0,0,0,0,0,0,0,0,0,0,0,0,0,0,0,0,0,0,0,0,0,0,0,0,0,0,0,0,0,0,0,0,0,0,0,0,0,0,0,0,0,0,0,0,0,0,0,0,0,0,0,0,0,0,0,0,0,0,0,0,0,0,0,0,0,0,0,0,0,0,0,0,0,0,0,0,0,0,0,0,0,0,0,0,0,0,0,0,0,0,0,0,0,0,0,0,0,0,0,0,0,0,0,0,0,0,0,0,0,0,0,0,0,0,0,0,0,0,0,0,0,0,0,0,0,0,0,0,0,0,0,0,0,0,0,0,0,0,0,0,0,0,0,0,0,0,0,0,0,0,0,0,0,0,0,0,0,0,0,0,0,0,0,0,0,0,0,0,0,0,0,0,0,0,0,0,0,0,0,0,0,0,0,0,0,0,0,0,0,0,0,0,0,0,0,0,0,0,0,0,0,0,0,0,0,0,0,0,0,0,0,0,0,0,0,0,0,0,0,0,0,0,0,0,0,0,0,0,0,0,0,0,0,0,0,0,0,0,0,0,0,0,0,0,0,0,0,0,0,0,0,0,0,0,
0,0,0,0,0,0,0,0,0,0,0,0,0,0,0,0,0,0,0,0,0,0,0,0,0,0,0,0,0,0,0,0,0,0,0,0,0,0,0,0,0,0,0,0,0,0,0,0,0,0,0,0,0,0,0,0,0,0,0,0,0,0,0,0,0,0,0,0,0,0,0,0,0,0,0,0,0,0,0,0,0,0,0,0,0,0,0,0,0,0,0,0,0,0,0,0,0,0,0,0,0,0,0,0,0,0,0,0,0,0,0,0,0,0,0,0,0,0,0,0,0,0,0,0,0,0,0,0,0,0,0,0,0,0,0,0,0,0,0,0,0,0,0,0,0,0,0,0,0,0,0,0,0,0,0,0,0,0,0,0,0,0,0,0,0,0,0,0,0,0,0,0,0,0,0,0,0,0,0,0,0,0,0,0,0,0,0,0,0,0,0,0,0,0,0,0,0,0,0,0,0,0,0,0,0,0,0,0,0,0,0,0,0,0,0,0,0,0,0,0,0,0,0,0,0,0,0,0,0,0,0,0,0,0,0,0,0,0,0,0,0,0,0,0,0,0,0,0,0,0,0,0,0,0,0,0,0,0,0,0,0,0,0,0,0,0,0,0,0,0,0,0,0,0,0,0,0,0,0,0,0,0,0,0,0,0,0,0,0,0,0,0,0,0,0,0,0,0,0,0,
0,0,0,0,0,0,0,0,0,0,0,0,0,0,0,0,0,0,0,0,0,0,0,0,0,0,0,0,0,0,0,0,0,0,0,0,0,0,0,0,0,0,0,0,0,0,0,0,0,0,0,0,0,0,0,0,0,0,0,0,0,0,0,0,0,0,0,0,0,0,0,0,0,0,0,0,0,0,0,0,0,0,0,0,0,0,0,0,0,0,0,0,0,0,0,0,0,0,0,0,0,0,0,0,0,0,0,0,0,0,0,0,0,0,0,0,0,0,0,0,0,0,0,0,0,0,0,0,0,0,0,0,0,0,0,0,0,0,0,0,0,0,0,0,0,0,0,0,0,0,0,0,0,0,0,0,0,0,0,0,0,0,0,0,0,0,0,0,0,0,0,0,0,0,0,0,0,0,0,0,0,0,0,0,0,0,0,0,0,0,0,0,0,0,0,0,0,0,0,0,0,0,0,0,0,0,0,0,0,0,0,0,0,0,0,0,0,0,0,0,0,0,0,0,0,0,0,0,0,0,0,0,0,0,0,0,0,0,0,0,0,0,0,0,0,0,0,0,0,0,0,0,0,0,0,0,0,0,0,0,0,0,0,0,0,0,0,0,0,0,0,0,0,0,0,0,0,0,0,0,0,0,0,0,0,0,0,0,0,0,0,0,0,0,0,0,0,0,0,0,
0,0,0,0,0,0,0,0,0,0,0,0,0,0,0,0,0,0,0,0,0,0,0,0,0,0,0,0,0,0,0,0,0,0,0,0,0,0,0,0,0,0,0,0,0,0,0,0,0,0,0,0,0,0,0,0,0,0,0,0,0,0,0,0,0,0,0,0,0,0,0,0,0,0,0,0,0,0,0,0,0,0,0,0,0,0,0,0,0,0,0,0,0,0,0,0,0,0,0,0,0,0,0,0,0,0,0,0,0,0,0,0,0,0,0,0,0,0,0,0,0,0,0,0,0,0,0,0,0,0,0,0,0,0,0,0,0,0,0,0,0,0,0,0,0,0,0,0,0,0,0,0,0,0,0,0,0,0,0,0,0,0,0,0,0,0,0,0,0,0,0,0,0,0,0,0,0,0,0,0,0,0,0,0,0,0,0,0,0,0,0,0,0,0,0,0,0,0,0,0,0,0,0,0,0,0,0,0,0,0,0,0,0,0,0,0,0,0,0,0,0,0,0,0,0,0,0,0,0,0,0,0,0,0,0,0,0,0,0,0,0,0,0,0,0,0,0,0,0,0,0,0,0,0,0,0,0,0,0,0,0,0,0,0,0,0,0,0,0,0,0,0,0,0,0,0,0,0,0,0,0,0,0,0,0,0,0,0,0,0,0,0,0,0,0,0,0,0,0,0,
0,0,0,0,0,0,0,0,0,0,0,0,0,0,0,0,0,0,0,0,0,0,0,0,0,0,0,0,0,0,0,0,0,0,0,0,0,0,0,0,0,0,0,0,0,0,0,0,0,0,0,0,0,0,0,0,0,0,0,0,0,0,0,0,0,0,0,0,0,0,0,0,0,0,0,0,0,0,0,0,0,0,0,0,0,0,0,0,0,0,0,0,0,0,0,0,0,0,0,0,0,0,0,0,0,0,0,0,0,0,0,0,0,0,0,0,0,0,0,0,0,0,0,0,0,0,0,0,0,0,0,0,0,0,0,0,0,0,0,0,0,0,0,0,0,0,0,0,0,0,0,0,0,0,0,0,0,0,0,0,0,0,0,0,0,0,0,0,0,0,0,0,0,0,0,0,0,0,0,0,0,0,0,0,0,0,0,0,0,0,0,0,0,0,0,0,0,0,0,0,0,0,0,0,0,0,0,0,0,0,0,0,0,0,0,0,0,0,0,0,0,0,0,0,0,0,0,0,0,0,0,0,0,0,0,0,0,0,0,0,0,0,0,0,0,0,0,0,0,0,0,0,0,0,0,0,0,0,0,0,0,0,0,0,0,0,0,0,0,0,0,0,0,0,0,0,0,0,0,0,0,0,0,0,0,0,0,0,0,0,0,0,0,0,0,0,0,0,0,0,
0,0,0,0,0,0,0,0,0,0,0,0,0,0,0,0,0,0,0,0,0,0,0,0,0,0,0,0,0,0,0,0,0,0,0,0,0,0,0,0,0,0,0,0,0,0,0,0,0,0,0,0,0,0,0,0,0,0,0,0,0,0,0,0,0,0,0,0,0,0,0,0,0,0,0,0,0,0,0,0,0,0,0,0,0,0,0,0,0,0,0,0,0,0,0,0,0,0,0,0,0,0,0,0,0,0,0,0,0,0,0,0,0,0,0,0,0,0,0,0,0,0,0,0,0,0,0,0,0,0,0,0,0,0,0,0,0,0,0,0,0,0,0,0,0,0,0,0,0,0,0,0,0,0,0,0,0,0,0,0,0,0,0,0,0,0,0,0,0,0,0,0,0,0,0,0,0,0,0,0,0,0,0,0,0,0,0,0,0,0,0,0,0,0,0,0,0,0,0,0,0,0,0,0,0,0,0,0,0,0,0,0,0,0,0,0,0,0,0,0,0,0,0,0,0,0,0,284,285,286,0,0,0,0,0,0,0,0,0,0,0,0,0,0,0,0,0,0,0,0,0,0,0,0,0,0,0,0,0,0,0,0,0,0,0,0,0,0,0,0,0,0,0,0,0,0,0,0,0,0,0,0,0,0,0,0,0,0,0,0,0,0,0,0,0,0,0,0,0,0,
0,0,0,0,0,0,0,0,0,0,0,0,0,0,0,0,0,0,0,0,0,0,0,0,0,0,0,0,0,0,0,0,0,0,0,0,0,0,0,0,0,0,0,0,0,0,0,0,0,0,0,0,0,0,0,0,0,0,0,0,0,0,0,0,0,0,0,0,0,0,0,0,0,0,0,0,0,0,0,0,0,0,0,0,0,0,0,0,0,0,0,0,0,0,0,0,0,0,0,0,0,0,0,0,0,0,0,0,0,0,0,0,0,0,0,0,0,0,0,0,0,0,0,0,0,0,0,0,0,0,0,0,0,0,0,0,0,0,0,0,0,0,0,0,0,0,0,0,0,0,0,0,0,0,0,0,0,0,0,0,0,0,0,0,0,0,0,0,0,0,0,0,0,0,0,0,0,0,0,0,0,0,0,0,0,0,0,0,0,0,0,0,0,0,0,0,0,0,0,0,0,0,0,0,0,0,0,0,0,0,0,0,0,0,0,0,0,0,0,0,0,0,0,0,0,0,0,302,303,304,0,0,0,0,0,0,0,0,0,0,0,0,0,0,0,0,0,0,0,0,0,0,0,0,0,0,0,155,156,0,0,0,0,0,0,0,0,0,0,0,0,0,0,0,0,0,0,0,0,0,0,0,0,0,0,0,0,0,0,0,0,0,0,0,0,0,0,0,0,0,
0,0,0,0,0,0,0,0,0,0,0,0,0,0,0,0,0,0,0,0,0,0,0,0,0,0,0,0,0,0,0,0,0,0,0,0,0,0,0,0,0,0,0,0,0,0,0,0,0,0,0,0,0,0,0,0,0,0,0,0,0,0,0,0,0,0,0,0,102,103,0,0,0,0,0,0,0,0,0,0,0,0,0,0,0,0,0,0,0,0,0,0,0,0,0,0,0,0,0,0,0,0,0,0,0,0,0,0,0,0,0,0,0,0,0,0,0,0,0,0,0,0,0,0,0,0,0,0,0,0,0,0,0,0,0,0,0,0,0,0,0,0,0,0,0,0,0,0,0,0,0,0,0,0,0,0,0,0,0,0,0,0,0,0,0,0,0,0,0,0,0,0,0,0,0,0,0,0,0,0,0,0,0,0,0,0,0,0,0,0,0,0,0,0,0,0,0,0,0,0,0,0,0,0,0,0,0,0,0,0,0,0,0,0,0,0,0,0,0,0,0,0,0,0,0,0,0,320,321,322,0,0,0,0,0,0,0,0,0,0,0,0,0,0,0,0,0,0,0,0,0,0,0,0,0,0,0,0,0,0,0,0,0,0,0,0,0,0,0,0,0,0,0,0,0,0,0,0,0,0,0,0,0,0,0,0,0,0,0,0,0,0,0,0,0,0,0,0,0,0,
0,0,0,0,0,0,0,0,0,0,0,0,0,0,0,0,0,0,0,0,0,0,228,229,0,0,0,0,0,0,0,0,0,0,0,0,0,0,0,0,0,0,0,0,0,0,0,0,0,0,0,0,0,0,0,0,0,0,0,0,0,0,0,116,117,0,0,0,122,123,0,0,0,0,0,0,0,0,0,0,0,0,0,0,0,0,0,0,0,0,0,0,0,0,0,0,0,0,0,0,0,0,0,0,0,0,0,0,0,0,0,0,0,0,0,0,0,0,0,0,0,0,0,0,0,0,0,0,0,0,0,0,0,0,0,0,0,0,0,0,0,0,0,0,0,0,0,0,0,0,0,0,0,0,0,0,0,0,0,0,0,0,0,0,0,0,0,0,0,0,0,0,0,0,0,0,0,0,0,0,0,0,0,0,0,0,0,0,0,0,0,0,0,0,0,0,0,0,0,0,0,0,0,0,0,0,0,0,0,0,0,0,0,0,0,0,0,0,0,0,43,43,43,43,43,44,0,338,339,0,0,0,0,0,0,0,0,0,0,0,0,0,0,0,0,0,0,0,0,0,0,0,0,0,0,0,0,0,0,0,0,0,0,0,0,0,0,0,43,44,0,0,0,34,0,0,0,0,0,0,0,0,34,0,0,0,0,0,0,0,0,0,0,0,0,0,0,0,0,0,
0,0,0,0,0,0,0,0,0,0,0,0,0,0,0,0,0,0,0,0,0,0,0,0,0,0,0,0,0,0,0,0,0,0,0,0,0,0,0,0,0,0,0,0,0,0,0,0,0,0,0,0,0,0,0,0,0,0,0,0,0,0,0,130,131,0,0,0,136,137,0,0,0,0,0,0,0,0,0,0,0,0,0,0,0,0,0,0,0,0,0,0,0,0,0,0,0,0,0,0,0,0,0,0,0,0,0,0,0,0,0,0,0,0,0,0,0,0,0,0,0,0,0,0,0,0,0,0,0,0,0,0,0,0,0,0,0,0,0,0,0,0,0,0,0,0,0,0,0,0,0,0,0,0,0,0,0,0,0,0,0,0,0,0,0,0,0,0,0,0,0,0,0,0,0,0,0,0,0,0,0,0,0,0,0,0,0,0,0,0,0,0,0,0,0,0,0,0,0,0,0,0,0,0,0,0,0,0,0,0,0,0,0,0,0,0,0,0,0,0,57,57,57,57,43,43,43,43,44,0,0,0,0,0,0,0,0,0,0,43,43,43,43,43,43,43,43,43,43,43,43,43,43,43,43,43,43,43,43,43,43,43,43,43,43,43,43,43,57,58,0,0,0,0,0,0,0,0,0,0,0,0,0,0,0,0,0,0,0,0,0,0,0,0,0,0,0,0,0,0,
0,0,0,0,0,0,0,0,0,0,0,0,0,0,0,0,0,29,30,29,30,0,0,0,0,0,0,0,0,0,0,0,0,0,0,0,0,0,0,0,0,0,0,0,0,0,0,0,0,0,0,0,0,0,0,0,0,0,0,0,0,0,0,122,123,0,0,0,122,123,0,0,0,102,103,104,0,0,0,0,0,0,0,0,0,0,0,0,0,0,0,0,0,0,0,0,0,0,0,0,0,0,0,0,0,0,0,0,0,0,0,0,0,0,0,0,0,0,0,0,0,0,0,0,0,0,0,0,0,0,0,0,0,0,0,0,0,0,0,0,0,0,0,0,0,0,0,0,0,0,0,0,0,0,0,0,0,0,0,0,0,0,0,0,0,0,0,0,0,0,0,0,0,0,0,0,0,0,0,0,0,0,0,0,0,0,0,0,0,0,0,0,0,0,0,0,0,0,0,0,0,0,0,0,0,0,0,0,0,0,0,0,0,0,0,0,0,0,0,0,1012,1012,1013,1014,57,57,57,57,43,43,43,43,43,43,43,43,43,43,43,57,57,57,57,57,57,57,57,57,57,57,57,57,57,57,57,57,57,57,57,57,57,57,57,57,57,57,57,57,57,58,0,0,0,0,0,0,0,0,0,0,0,0,0,0,0,0,0,0,0,0,0,0,0,0,0,0,0,0,0,0,
43,29,30,30,31,29,30,29,30,29,30,29,30,29,30,43,44,35,36,37,0,0,0,0,0,0,0,0,0,0,0,0,0,0,0,0,0,0,0,0,0,0,0,0,0,0,0,0,0,0,0,0,0,0,0,0,0,0,0,0,0,0,0,136,137,0,0,0,136,137,0,0,0,105,106,107,0,0,0,0,0,0,0,0,0,0,0,0,0,0,0,0,0,0,0,0,0,0,0,0,0,0,0,0,0,0,0,0,0,0,0,0,0,0,0,0,0,0,0,0,0,0,0,0,0,0,0,0,0,0,0,0,0,0,0,0,0,0,0,0,0,0,0,0,0,0,0,0,0,0,0,0,0,0,0,0,0,0,0,0,0,0,0,0,0,0,0,0,0,0,0,0,0,0,0,0,0,0,0,0,0,0,0,0,0,0,0,0,0,0,0,0,0,0,0,0,0,0,0,0,0,0,0,0,0,0,0,0,0,0,0,0,0,0,0,0,0,0,0,0,1023,1023,1024,1025,1012,1012,1013,1014,57,57,57,57,57,57,57,57,57,57,57,1012,1013,1014,1012,1013,1014,0,0,0,0,0,0,1012,1013,1014,1012,1013,1014,1012,1013,1014,1012,1013,1014,0,0,0,0,0,0,0,0,0,0,0,0,0,0,0,0,0,0,0,0,0,0,0,0,0,0,0,0,0,0,0,0,0,0,0,0,0,
31,35,36,36,36,53,35,36,36,36,39,38,39,52,37,57,58,49,50,51,0,0,0,0,0,0,0,0,0,0,0,0,0,0,0,0,0,0,0,0,0,0,0,0,0,0,0,0,0,0,0,0,0,0,0,0,0,0,0,0,0,0,0,122,123,0,0,0,122,123,0,0,0,119,120,121,0,0,0,0,0,0,0,0,0,0,0,0,0,0,0,0,0,0,0,0,0,0,0,0,0,0,0,0,0,0,0,0,0,0,0,0,0,0,0,0,0,0,0,0,0,0,0,0,0,0,0,0,0,0,0,0,0,0,0,0,0,0,0,0,0,0,0,0,0,0,0,0,0,0,0,0,0,0,0,0,0,0,0,0,0,0,0,0,0,0,0,0,0,0,0,0,0,0,0,0,0,0,0,0,0,0,0,0,0,0,0,0,0,0,0,0,0,0,0,0,0,0,0,0,0,0,0,0,0,0,0,0,0,0,0,0,0,0,0,0,0,0,0,0,1034,1034,1035,1036,1023,1023,1024,1025,1012,1013,1014,1012,1013,1014,1012,1013,1014,1012,1013,1023,1024,1025,1023,1024,1025,0,0,0,0,0,0,1023,1024,1025,1023,1024,1025,1023,1024,1025,1023,1024,1025,0,0,0,0,0,0,0,0,0,0,0,0,0,0,0,0,0,0,0,0,0,0,0,0,0,0,0,0,0,0,0,0,0,0,0,0,0,
37,57,64,64,50,51,63,64,64,64,35,36,37,63,67,35,36,63,64,65,0,0,0,0,0,0,0,0,0,0,0,0,0,0,0,0,0,0,0,0,0,0,0,0,0,0,0,0,0,0,0,0,0,0,0,0,0,0,0,0,0,0,0,136,137,0,0,0,136,137,0,0,0,133,134,135,0,0,0,0,0,0,0,0,0,0,0,0,0,0,0,0,0,0,0,0,0,0,0,0,0,0,0,0,0,0,0,0,0,0,0,0,0,0,0,0,0,0,0,0,0,0,0,0,0,0,0,0,0,0,0,0,0,0,0,0,0,0,0,0,0,0,0,0,0,0,0,0,0,0,0,0,0,0,0,0,0,0,0,0,0,0,0,0,0,0,0,0,0,0,0,0,0,0,0,0,0,0,0,0,0,0,0,0,0,0,0,0,0,0,0,0,0,0,0,0,0,0,0,0,0,0,0,0,0,0,0,0,0,0,0,0,0,0,0,0,0,0,0,0,1012,1013,1014,1012,1034,1034,1035,1036,1023,1024,1025,1023,1024,1025,1023,1024,1025,1023,1024,1034,1035,1036,1034,1035,1036,0,0,0,0,0,0,1034,1035,1036,1034,1035,1036,1034,1035,1036,1034,1035,1036,0,0,0,0,0,0,0,0,0,0,0,0,0,0,0,0,0,0,0,0,0,0,0,0,0,0,0,0,0,0,0,0,0,0,0,0,0,
64,39,38,39,63,58,38,39,38,39,57,64,64,39,0,49,50,51,0,0,0,0,0,0,0,0,0,0,0,0,0,0,0,0,0,0,0,0,0,0,0,0,0,0,0,0,0,0,0,0,0,0,0,0,0,0,0,0,0,0,0,0,0,122,123,0,0,0,122,123,0,0,0,105,106,107,0,0,0,0,0,0,0,0,0,0,0,0,0,0,0,0,0,0,0,0,0,0,0,0,0,0,0,0,0,0,0,0,0,0,0,0,0,0,0,0,0,0,0,0,0,0,0,0,0,0,0,0,0,0,0,0,0,0,0,0,0,0,0,0,0,0,0,0,0,0,0,0,0,0,0,0,0,0,0,0,0,0,0,0,0,0,0,0,0,0,0,0,0,0,0,0,0,0,0,0,0,0,0,0,0,0,0,0,0,0,0,0,0,0,0,0,0,0,0,0,0,0,0,0,0,0,0,0,0,0,0,0,0,0,0,0,0,0,0,0,0,0,0,0,1012,1013,1014,1012,1023,1024,1012,1013,1034,1035,1036,1034,1035,1036,1034,1035,1036,1034,1035,1036,0,0,0,0,0,0,0,0,0,0,0,0,0,1012,1013,1014,1012,1013,1014,0,0,0,0,0,0,0,0,0,0,0,0,0,0,0,0,0,0,0,0,0,0,0,0,0,0,0,0,0,0,0,0,0,0,0,0,0,0,0,0,0,
35,36,36,36,36,36,36,36,37,52,36,53,38,39,0,63,64,65,0,0,0,0,0,0,0,0,0,0,0,0,0,0,0,0,0,0,0,0,0,0,0,0,0,0,0,0,0,0,0,0,0,0,0,0,0,0,0,0,0,0,0,0,0,136,137,0,0,0,136,137,0,0,0,119,120,121,0,0,0,0,0,0,0,0,0,0,0,0,0,0,0,0,0,0,0,0,0,0,0,0,0,0,0,0,0,0,0,0,0,0,0,0,0,0,0,0,0,0,0,0,0,0,0,0,0,0,0,0,0,0,0,0,0,0,0,0,0,0,0,0,0,0,0,0,0,0,0,0,0,0,0,0,0,0,0,0,0,0,0,0,0,0,0,0,0,0,0,0,0,0,0,0,0,0,0,0,0,0,0,0,0,0,0,0,0,0,0,0,0,0,0,0,0,0,0,0,0,0,0,0,0,0,0,0,0,0,0,0,0,0,0,0,0,0,0,0,0,0,0,0,1023,1024,1025,1023,1034,1035,1023,1024,1025,1012,1013,1014,1012,1013,1014,1012,1013,1012,1013,1014,0,0,0,0,0,0,0,0,0,0,0,0,0,1023,1024,1025,1023,1024,1025,0,0,0,0,0,0,0,0,0,0,0,0,0,0,0,0,0,0,0,0,0,0,0,0,0,0,0,0,0,0,0,0,0,0,0,0,0,0,0,0,0,
57,64,64,64,64,64,64,64,58,66,64,67,38,39,0,0,0,0,0,0,0,0,0,0,0,0,0,0,0,0,0,0,0,0,0,0,0,0,0,0,0,0,0,0,0,0,0,0,0,0,0,0,0,0,0,0,0,0,0,0,0,0,0,122,123,0,0,0,122,123,0,0,0,133,134,135,0,0,0,0,0,0,0,0,0,0,0,0,0,0,0,0,0,0,0,0,0,0,0,0,0,0,0,0,0,0,0,0,0,0,0,0,0,0,0,0,0,0,0,0,0,0,0,0,0,0,0,0,0,0,0,0,0,0,0,0,0,0,0,0,0,0,0,0,0,0,0,0,0,0,0,0,0,0,0,0,0,0,0,0,0,0,0,0,0,0,0,0,0,0,0,0,0,0,0,0,0,0,0,0,0,0,0,0,0,0,0,0,0,0,0,0,0,0,0,0,0,0,0,0,0,0,0,0,0,0,0,0,0,0,0,0,0,0,0,0,0,0,0,0,1034,1035,1036,1034,1035,1036,1034,1035,1036,1023,1024,1025,1023,1024,1025,1023,1024,1023,1024,1025,0,0,0,0,0,0,0,0,0,0,0,0,0,1034,1035,1036,1034,1035,1036,0,0,0,0,0,0,0,0,0,0,0,0,0,0,0,0,0,0,0,0,0,0,0,0,0,0,0,0,0,0,0,0,0,0,0,0,0,0,0,0,0
</data>
 </layer>
 <layer id="4" name="collision" width="300" height="20" opacity="0.7">
  <data encoding="csv">
0,0,0,0,0,0,0,0,0,0,0,0,0,0,0,0,0,0,0,0,0,0,0,0,0,0,0,0,0,0,0,0,0,0,0,0,0,0,0,0,0,0,0,0,0,0,0,0,0,0,0,0,0,0,0,0,0,0,0,0,0,0,0,0,0,0,0,0,0,0,0,0,0,0,0,0,0,0,0,0,0,0,0,0,0,0,0,0,0,0,0,0,0,0,0,0,0,0,0,0,0,0,0,0,0,0,0,0,0,0,0,0,0,0,0,0,0,0,0,0,0,0,0,0,0,0,0,0,0,0,0,0,0,0,0,0,0,0,0,0,0,0,0,0,0,0,0,0,0,0,0,0,0,0,0,0,0,0,0,0,0,0,0,0,0,0,0,0,0,0,0,0,0,0,0,0,0,0,0,0,0,0,0,0,0,0,0,0,0,0,0,0,0,0,0,0,0,0,0,0,0,0,0,0,0,0,0,0,0,0,0,0,0,0,0,0,0,0,0,0,0,0,0,0,0,0,0,0,0,0,0,0,0,0,0,0,0,0,0,0,0,0,0,0,0,0,0,0,0,0,0,0,0,0,0,0,0,0,0,0,0,0,0,0,0,0,0,0,0,0,0,0,0,0,0,0,0,0,0,0,0,0,0,0,0,0,0,0,0,0,0,0,0,0,0,0,0,0,0,0,
0,0,0,0,0,0,0,0,0,0,0,0,0,0,0,0,0,0,0,0,0,0,0,0,0,0,0,0,0,0,0,0,0,0,0,0,0,0,0,0,0,0,0,0,0,0,0,0,0,0,0,0,0,0,0,0,0,0,0,0,0,0,0,0,0,0,0,0,0,0,0,0,0,0,0,0,0,0,0,0,0,0,0,0,0,0,0,0,0,0,0,0,0,0,0,0,0,0,0,0,0,0,0,0,0,0,0,0,0,0,0,0,0,0,0,0,0,0,0,0,0,0,0,0,0,0,0,0,0,0,0,0,0,0,0,0,0,0,0,0,0,0,0,0,0,0,0,0,0,0,0,0,0,0,0,0,0,0,0,0,0,0,0,0,0,0,0,0,0,0,0,0,0,0,0,0,0,0,0,0,0,0,0,0,0,0,0,0,0,0,0,0,0,0,0,0,0,0,0,0,0,0,0,0,0,0,0,0,0,0,0,0,0,0,0,0,0,0,0,0,0,0,0,0,0,0,0,0,0,0,0,0,0,0,0,0,0,0,0,0,0,0,0,0,0,0,0,0,0,0,0,0,0,0,0,0,0,0,0,0,0,0,0,0,0,0,0,0,0,0,0,0,0,0,0,0,0,0,0,0,0,0,0,0,0,0,0,0,0,0,0,0,0,0,0,0,0,0,0,0,
0,0,0,0,0,0,0,0,0,0,0,0,0,0,0,0,0,0,0,0,0,0,0,0,0,0,0,0,0,0,0,0,0,0,0,0,0,0,0,0,0,0,0,0,0,0,0,0,0,0,0,0,0,0,0,0,0,0,0,0,0,0,0,0,0,0,0,0,0,0,0,0,0,0,0,0,0,0,0,0,0,0,0,0,0,0,0,0,0,0,0,0,0,0,0,0,0,0,0,0,0,0,0,0,0,0,0,0,0,0,0,0,0,0,0,0,0,0,0,0,0,0,0,0,0,0,0,0,0,0,0,0,0,0,0,0,0,0,0,0,0,0,0,0,0,0,0,0,0,0,0,0,0,0,0,0,0,0,0,0,0,0,0,0,0,0,0,0,0,0,0,0,0,0,0,0,0,0,0,0,0,0,0,0,0,0,0,0,0,0,0,0,0,0,0,0,0,0,0,0,0,0,0,0,0,0,0,0,0,0,0,0,0,0,0,0,0,0,0,0,0,0,0,0,0,0,0,0,0,0,0,0,0,0,0,0,0,0,0,0,0,0,0,0,0,0,0,0,0,1217,1217,0,0,0,0,0,0,0,0,0,0,0,0,0,0,0,0,0,0,0,0,0,0,0,0,0,0,0,0,0,0,0,0,0,0,0,0,0,0,0,0,0,0,0,0,1208,1208,1208,1208,1208,
0,0,0,0,0,0,0,0,0,0,0,0,0,0,0,0,0,0,0,0,0,0,0,0,0,0,0,0,0,0,0,0,0,0,0,0,0,0,0,0,0,0,0,0,0,0,0,0,0,0,0,0,0,0,0,0,0,0,0,0,0,0,0,0,0,0,0,0,0,0,0,0,0,0,0,0,0,0,0,0,0,0,0,0,0,0,0,0,0,0,0,0,0,0,0,0,0,0,0,0,0,0,0,0,0,0,0,0,0,0,0,0,0,0,0,0,0,0,0,0,0,0,0,0,0,0,0,0,0,0,0,0,0,0,0,0,0,0,0,0,0,0,0,0,0,0,0,0,0,0,0,0,0,0,0,0,0,0,0,0,0,0,0,0,1210,0,1217,1217,0,0,0,0,0,0,0,0,0,0,0,0,0,0,0,0,0,0,0,0,0,0,0,0,0,0,0,0,0,0,0,0,0,0,0,0,0,0,0,0,0,0,0,0,0,0,0,0,0,0,0,0,0,0,0,0,0,0,0,0,0,0,0,0,0,0,0,0,0,0,0,0,0,0,0,0,0,0,0,0,0,0,0,0,0,0,0,0,0,0,0,0,0,0,0,0,0,0,0,0,0,0,0,0,0,0,0,0,0,0,0,0,0,0,0,0,0,0,0,0,0,0,0,0,0,0,0,1208,0,0,0,0,
0,0,0,0,0,0,0,0,0,0,0,0,0,0,0,0,0,0,0,0,0,0,1217,1217,0,0,0,0,0,0,0,1217,1217,0,0,0,0,0,0,0,0,0,0,0,0,0,0,0,0,0,0,0,0,0,0,0,0,0,0,0,0,0,0,0,0,0,0,0,0,0,0,0,0,0,0,0,0,0,0,0,0,0,0,0,0,0,0,0,0,0,0,0,1208,0,0,0,0,0,0,0,1208,1208,1208,1208,0,0,0,0,0,0,0,0,0,0,0,0,0,0,0,0,0,0,0,0,0,0,0,1217,1217,0,0,0,0,0,0,0,0,0,0,0,0,0,0,0,0,0,0,0,0,0,0,0,0,0,0,0,0,0,0,0,0,0,0,0,0,0,0,0,0,0,0,0,0,0,0,0,0,0,0,0,0,0,0,0,1217,1217,1217,0,0,0,0,0,0,0,0,0,0,0,0,0,0,0,0,0,0,0,0,0,0,0,0,0,0,0,0,0,0,0,0,0,0,0,0,0,0,0,0,0,0,0,0,0,0,0,0,0,0,0,0,0,0,0,0,0,0,0,0,0,0,0,0,0,0,0,0,0,0,0,0,0,0,1217,1217,1217,1217,0,0,0,0,0,0,0,0,0,0,0,0,0,0,0,0,0,0,0,0,0,0,0,0,0,0,0,0,0,0,1208,1208,1208,1208,1208,
0,0,0,0,0,0,0,0,0,0,0,0,0,0,0,0,0,0,0,0,0,0,0,0,0,0,0,0,0,0,0,0,0,0,0,0,0,0,0,0,0,0,0,0,0,0,0,0,0,0,0,0,0,0,0,0,0,0,0,0,0,0,0,0,0,0,0,0,0,0,0,0,0,0,0,0,0,0,0,0,0,0,0,0,0,0,0,1208,1208,1208,0,0,0,0,0,1208,0,0,0,0,1208,1208,0,1208,1208,1208,1208,1208,1208,0,0,0,0,0,0,0,0,0,0,0,0,0,0,0,0,0,0,0,0,0,0,0,0,0,0,0,0,0,0,0,0,0,0,0,0,0,0,0,0,0,0,0,0,0,0,0,0,0,0,0,0,0,0,0,0,0,0,0,0,0,0,0,0,0,0,1217,1217,0,0,0,0,0,0,0,0,0,0,0,0,0,0,0,0,0,0,0,0,0,0,0,0,0,0,0,0,0,0,0,0,0,0,0,0,0,0,0,0,0,0,0,0,0,0,0,0,0,0,0,0,0,0,0,0,0,0,0,0,0,0,0,0,0,0,0,0,0,0,0,0,0,0,0,0,0,0,0,0,0,1217,1217,1217,1217,1217,1217,0,0,0,0,0,0,0,0,0,0,0,0,0,0,0,0,0,0,0,0,0,0,0,0,0,0,0,0,0,0,0,0,0,0,0,0,
0,0,0,0,0,0,0,0,0,0,0,0,0,0,0,0,0,0,0,0,0,0,0,0,0,0,1217,1217,0,0,0,0,0,0,0,0,0,0,0,0,0,0,0,0,0,0,0,0,0,0,0,0,0,0,0,0,0,0,0,0,0,0,0,0,0,0,0,0,0,0,0,0,0,0,0,0,0,0,0,0,0,0,0,0,0,0,0,0,0,0,0,0,0,0,0,0,0,0,0,0,0,1208,0,0,0,0,0,0,1208,1208,1208,0,0,0,0,0,0,1217,1217,0,0,0,0,0,0,0,0,0,0,0,0,0,0,0,0,0,0,0,0,0,0,0,0,0,0,0,0,0,0,0,0,0,0,0,0,0,0,0,0,0,0,0,0,0,0,0,0,0,0,0,1217,0,0,0,0,0,0,0,0,0,0,0,0,0,0,0,0,0,0,0,0,0,0,0,0,0,0,0,0,0,0,0,0,0,0,0,0,0,0,0,0,0,0,0,0,0,0,0,0,0,0,0,0,0,0,0,0,0,0,0,0,0,0,0,0,0,0,0,0,0,0,0,0,0,0,0,0,0,0,0,0,0,0,0,1217,1217,1217,1217,1217,1217,1217,0,0,0,0,0,0,0,0,0,0,0,0,0,0,0,0,0,0,0,0,0,0,0,0,0,0,0,0,0,0,0,0,0,0,0,0,0,0,0,
0,0,0,0,0,0,0,0,0,0,0,0,0,0,0,0,0,0,0,0,0,0,0,0,0,0,0,0,0,0,0,0,0,0,0,0,0,0,0,0,0,0,0,0,0,0,0,0,0,0,0,0,0,0,0,0,0,0,0,0,0,0,0,0,0,0,0,0,0,0,0,0,0,0,0,0,0,0,0,0,0,0,0,0,0,0,0,0,0,0,0,0,0,0,0,0,0,0,0,0,0,1208,1208,0,0,0,0,0,0,0,1208,1208,0,0,0,0,0,0,0,0,0,0,0,0,0,0,0,0,0,0,0,0,0,0,0,0,0,0,0,0,0,0,0,0,0,0,0,0,0,0,0,0,0,0,0,0,0,0,0,0,0,0,0,0,0,0,0,0,0,0,0,0,0,0,0,0,0,0,0,0,0,0,0,0,0,0,0,0,0,0,0,0,0,0,0,0,0,0,0,0,0,0,0,0,0,0,0,0,0,0,0,0,0,0,0,0,0,0,0,0,0,0,0,0,0,0,0,0,0,0,0,0,0,0,0,0,0,0,0,0,0,0,0,0,0,0,0,0,0,0,1217,1217,1217,1217,1217,1217,0,0,0,0,0,0,0,0,0,0,0,0,0,0,0,0,0,0,0,0,0,0,0,0,0,0,0,0,0,0,0,0,0,0,0,0,0,0,0,0,0,0,0,0,
0,0,0,0,0,0,0,0,0,0,0,0,0,0,0,0,0,0,0,0,0,0,0,0,0,0,0,0,0,0,0,0,0,0,0,0,0,0,0,0,0,0,0,0,0,0,0,0,0,0,0,0,0,0,0,0,0,0,0,0,0,0,0,0,0,0,0,0,0,0,0,0,0,0,0,0,0,0,0,0,0,0,0,0,0,0,0,0,0,0,0,0,0,0,0,0,0,0,0,0,0,0,1208,0,0,0,0,0,0,0,0,1208,1208,1208,1208,1208,1208,1208,1208,1208,1208,1208,1208,1208,1208,1208,1208,1208,1208,1208,1208,1208,1208,1208,1208,1208,0,0,0,0,0,0,0,0,0,0,0,0,0,0,0,0,0,0,0,0,0,0,0,0,0,0,0,0,0,0,0,0,0,0,0,0,0,0,0,0,0,0,0,0,0,0,0,0,0,0,0,0,0,0,0,0,0,0,0,0,0,0,0,0,0,0,0,0,0,0,0,0,0,0,0,0,0,0,0,0,0,0,0,0,0,0,0,0,0,0,0,0,0,0,0,0,0,0,0,0,0,0,0,0,0,0,0,0,0,0,0,1217,1217,1217,1217,1217,1217,0,0,0,0,0,0,0,0,0,0,0,0,0,0,0,0,0,0,0,0,0,0,0,0,0,0,0,0,0,0,0,0,0,0,0,0,0,0,0,0,0,0,0,0,0,0,0,
0,0,0,0,0,0,0,0,0,0,0,0,0,0,0,0,0,0,0,0,0,0,0,0,0,0,0,0,0,0,0,0,0,0,0,0,0,0,0,0,0,0,0,0,0,0,0,0,0,0,0,0,0,0,0,0,0,0,0,0,0,0,0,0,0,0,0,0,0,0,0,0,0,0,0,0,0,0,0,0,0,0,0,0,0,0,0,0,0,0,0,0,0,0,0,0,0,0,0,0,0,0,1208,1208,0,0,0,0,0,0,0,0,0,0,0,0,0,0,0,0,0,0,0,0,0,0,0,0,0,0,0,0,0,0,0,0,0,0,0,0,0,0,0,0,0,0,0,0,0,0,0,0,0,0,0,0,0,0,0,0,0,0,0,0,0,0,0,0,0,0,0,0,0,0,0,0,0,0,0,0,0,0,0,0,0,0,0,0,0,0,1208,1208,1208,0,0,0,0,1208,1208,1208,0,0,0,0,0,0,0,0,0,0,0,0,0,0,0,0,0,0,0,0,0,0,0,0,0,0,0,0,0,0,0,0,0,0,0,0,0,0,0,0,0,0,0,1217,1217,1217,1217,1217,0,0,0,0,0,0,0,0,0,1217,1217,0,0,0,0,0,0,0,0,0,0,0,0,0,0,0,0,0,0,0,0,0,0,0,0,0,0,0,0,0,0,0,0,0,0,0,0,0,0,0,0,0,
0,0,0,0,0,0,0,0,0,0,0,0,0,0,0,0,0,0,0,0,0,0,0,0,0,0,0,0,0,0,0,0,0,0,0,0,0,0,0,0,0,1208,1208,1208,1208,0,0,0,0,0,0,0,0,0,0,0,0,0,0,0,0,0,0,0,0,0,0,0,1208,1208,0,0,0,0,0,0,0,0,0,0,0,0,0,0,0,0,0,0,0,0,0,0,0,0,0,0,0,0,0,0,0,0,0,1208,0,0,0,0,0,0,0,0,0,0,0,0,0,0,0,0,0,0,0,0,0,0,0,0,0,0,0,0,0,0,0,0,0,0,0,0,0,0,0,0,0,0,0,0,0,0,0,0,0,0,0,0,0,0,0,0,0,0,0,0,1208,1208,1208,1208,1208,0,0,0,0,0,0,0,0,0,0,0,0,0,0,0,1208,1208,1208,1208,1208,1208,1208,0,1208,0,0,0,0,1208,0,1208,0,0,0,0,0,0,0,0,0,0,0,0,0,0,0,0,0,0,0,0,0,0,0,0,0,0,0,0,0,0,0,0,0,0,0,0,0,0,0,0,0,1217,1217,1217,0,0,0,0,0,0,0,0,0,0,0,0,0,0,0,0,0,0,0,0,0,0,0,0,0,0,0,0,0,0,0,0,0,0,0,0,0,0,0,0,0,0,0,1208,1208,1208,1208,1208,1208,1208,1208,1208,1208,0,0,0,
0,0,0,0,0,0,0,0,0,0,0,0,0,0,0,0,0,0,0,0,0,0,1217,1217,0,0,0,1208,1208,1208,1208,1208,1208,1208,1208,1208,1208,1208,1208,1208,1208,1208,0,0,0,1208,1208,1208,1208,1208,1208,1208,1208,1208,1208,1208,1208,1208,0,0,0,0,0,1208,1208,0,0,0,1208,1208,0,0,0,0,0,0,0,0,0,0,0,0,0,0,0,0,0,0,0,0,0,0,0,0,0,0,0,0,0,0,0,0,0,1208,1208,0,0,0,0,0,0,0,0,0,0,0,0,0,0,0,0,0,0,0,0,0,0,0,0,0,0,0,0,0,0,0,0,0,0,0,0,0,0,0,0,0,0,0,0,0,0,0,0,0,0,0,0,0,0,0,0,0,1208,1208,1208,0,0,0,1208,1208,1208,1208,1208,1208,1208,1208,1208,1208,1208,1208,1208,1208,1208,1208,1208,0,0,0,0,0,0,0,1208,0,0,0,0,1208,0,1208,0,0,0,0,0,0,0,0,0,0,0,0,0,0,0,0,0,0,0,0,1208,1208,1208,1208,1208,1208,0,0,0,0,0,0,0,0,0,0,0,0,0,1217,1217,0,0,0,0,0,0,0,0,0,0,0,0,0,0,0,0,0,0,0,0,0,0,0,0,0,0,0,1208,1208,0,0,0,1208,0,0,0,0,0,0,0,0,1208,0,0,0,0,1208,0,0,0,0,0,0,0,0,0,1208,0,0,
0,0,0,0,0,0,0,0,0,0,0,0,0,0,0,0,0,0,0,0,0,0,0,0,0,0,0,0,0,0,0,0,0,0,0,0,0,0,0,0,0,0,0,0,0,0,0,0,0,0,0,1208,1208,1208,1208,0,0,1208,1208,1208,1208,0,0,1208,1208,0,0,0,1208,1208,0,0,0,0,0,0,0,0,0,0,0,0,0,0,0,0,0,0,0,0,0,0,0,0,0,0,0,0,0,0,0,0,0,0,1208,0,0,0,0,0,0,0,0,0,0,0,0,0,0,0,0,0,0,0,0,0,0,0,0,0,0,0,0,0,0,0,0,0,0,0,0,0,0,0,0,0,0,0,0,0,0,0,0,0,0,0,0,0,0,0,0,1208,1208,0,0,0,0,0,0,0,0,0,0,0,0,0,0,0,0,0,0,0,0,0,0,0,0,0,0,0,0,1208,0,0,0,0,0,0,0,0,0,0,0,1210,1210,0,0,0,1208,1208,1208,0,0,0,0,1210,1210,0,0,0,0,0,0,0,1208,1208,1208,1208,1208,0,0,0,0,0,0,0,0,0,0,1208,1208,1208,1208,1208,1208,1208,1208,1208,1208,1208,1208,1208,1208,1208,1208,1208,1208,1208,1208,1208,1208,1208,1208,1208,1208,1208,1208,1208,0,0,0,0,0,0,0,0,0,0,0,0,0,0,0,0,0,0,0,0,1208,0,0,0,0,0,0,0,0,0,1208,1208,
0,0,0,0,0,0,0,0,0,0,0,0,0,0,0,0,0,1208,1208,1208,1208,0,0,0,0,0,0,0,0,0,0,0,0,0,0,0,0,0,0,0,0,0,0,0,0,0,0,0,0,0,0,0,0,0,0,0,0,0,0,0,0,0,0,1208,1208,0,0,0,1208,1208,0,0,0,1208,1208,1208,0,0,0,0,0,0,0,0,0,0,0,0,0,0,0,0,0,0,0,0,0,0,0,0,0,0,0,0,1208,0,0,0,0,0,0,0,0,0,0,0,0,0,0,0,0,0,0,0,0,0,0,0,0,0,0,0,0,0,0,0,0,0,0,0,0,0,0,0,0,0,0,0,0,0,0,0,0,0,0,0,0,0,0,0,1208,1208,0,0,0,0,0,0,0,0,0,0,0,0,0,0,0,0,0,0,0,0,0,0,0,0,0,0,0,0,1208,1208,0,0,0,0,0,0,0,0,0,0,0,0,0,0,0,0,1208,0,1208,0,0,0,0,0,0,0,0,0,0,0,0,0,0,0,0,0,1208,1208,1208,1208,1208,1208,1208,1208,1208,1208,1208,0,0,0,0,0,0,0,0,0,0,0,0,0,0,0,0,0,0,0,0,0,0,0,0,0,0,0,0,0,0,0,0,0,0,0,0,0,0,0,0,0,0,0,0,0,0,0,0,0,1208,1208,1208,1208,1208,0,0,0,0,0,0,0,
1208,1208,1208,1208,1208,1208,1208,1208,1208,1208,1208,1208,1208,1208,1208,1208,1208,1208,0,0,0,0,0,0,0,0,0,0,0,0,0,0,0,0,0,0,0,0,0,0,0,0,0,0,0,0,0,0,0,0,0,0,0,0,1208,1208,1208,1208,0,0,0,0,0,1208,1208,0,0,0,1208,1208,0,0,0,1208,0,1208,0,0,0,0,0,0,0,0,0,0,0,0,0,0,0,0,0,0,0,0,0,0,0,0,0,0,0,0,1208,0,0,0,0,0,0,0,0,0,0,0,0,0,0,0,0,0,0,0,0,0,0,0,0,0,0,0,0,0,0,0,0,0,0,0,0,0,0,0,0,0,0,0,0,0,0,0,0,0,0,0,0,0,0,0,1208,0,0,0,0,0,0,0,0,0,0,0,0,0,0,0,0,0,0,0,0,0,0,0,0,0,0,0,0,1208,0,0,0,0,0,0,0,0,0,0,0,0,0,0,0,0,0,0,1208,0,1208,0,0,0,0,0,0,0,0,0,0,0,0,0,0,0,0,0,0,0,0,0,0,0,0,0,0,0,0,0,0,0,0,0,0,0,0,0,0,0,0,0,0,0,0,0,0,0,0,0,0,0,0,0,0,0,0,0,0,0,0,0,0,0,0,0,0,0,0,0,0,0,0,0,0,0,0,0,0,0,0,0,1208,1208,1208,0,0,0,0,0,
0,0,0,0,0,0,0,0,0,0,0,0,0,0,0,0,0,0,0,0,0,0,0,0,0,0,0,0,0,0,0,0,0,0,0,0,0,0,0,0,0,0,0,0,0,0,0,0,0,0,0,0,0,1208,1208,0,1208,0,0,0,0,0,0,1208,1208,0,0,0,1208,1208,0,0,0,1208,0,1208,0,0,0,0,0,0,0,0,0,0,0,0,0,0,0,0,0,0,0,0,0,0,0,0,0,0,0,0,1208,0,0,0,0,0,0,0,0,0,0,0,0,0,0,0,0,0,0,0,0,0,0,0,0,0,0,0,0,0,0,0,0,0,0,0,0,0,0,0,0,0,0,0,0,0,0,0,0,0,0,0,0,0,0,0,1208,0,0,0,0,0,0,0,0,0,0,0,0,0,0,0,0,0,0,0,0,0,0,0,0,0,0,0,1208,0,0,0,0,0,0,0,0,0,0,0,0,0,0,0,0,0,0,0,0,0,0,0,0,0,0,0,0,0,0,0,0,0,0,0,0,0,0,0,0,0,0,0,0,0,0,0,0,0,0,0,0,0,0,0,0,0,0,0,0,0,0,0,0,0,0,0,0,0,0,0,0,0,0,0,0,0,0,0,0,0,0,0,0,0,0,0,0,0,0,0,0,0,0,0,0,0,0,0,0,0,0,0,0,0,1208,0,0,0,0,0,
0,0,0,0,0,0,0,0,0,0,0,0,0,0,0,0,0,0,0,0,0,0,0,0,0,0,0,0,0,0,0,0,0,0,0,0,0,0,0,0,0,0,0,0,0,0,0,0,0,0,0,0,0,1208,0,0,1208,0,0,0,0,0,0,1208,1208,0,0,0,1208,1208,0,0,0,1208,0,1208,0,0,0,0,0,0,0,0,0,0,0,0,0,0,0,0,0,0,0,0,0,0,0,0,0,0,0,0,1208,0,0,0,0,0,0,0,0,0,0,0,0,0,0,0,0,0,0,0,0,0,0,0,0,0,0,0,0,0,0,0,0,0,0,0,0,0,0,0,0,0,0,0,0,0,0,0,0,0,0,0,0,0,0,0,1208,0,0,0,0,0,0,0,0,0,0,0,0,0,0,0,0,0,0,0,0,0,0,0,0,0,1208,1208,1208,0,0,0,0,0,0,0,0,0,0,0,0,0,0,0,0,0,0,0,0,0,0,0,0,0,0,0,0,0,0,0,0,0,0,0,0,0,0,0,0,0,0,0,0,0,0,0,0,0,0,0,0,0,0,0,0,0,0,0,0,0,0,0,0,0,0,0,0,0,0,0,0,0,0,0,0,0,0,0,0,0,0,0,0,0,0,0,0,0,0,0,0,0,0,0,0,0,0,0,0,0,0,0,0,0,1208,1208,1208,0,0,0,
0,0,0,0,0,0,0,0,0,0,0,0,0,0,0,0,0,0,0,0,0,0,0,0,0,0,0,0,0,0,0,0,0,0,0,0,0,0,0,0,0,0,0,0,0,0,0,0,0,0,0,0,0,1208,0,0,0,0,0,0,0,0,0,1208,1208,0,0,0,1208,1208,0,0,0,1208,0,1208,0,0,0,0,0,0,0,0,0,0,0,0,0,0,0,0,0,0,0,0,0,0,0,0,0,0,0,0,1208,0,0,0,0,0,0,0,0,0,0,0,0,0,0,0,0,0,0,0,0,0,0,0,0,0,0,0,0,0,0,0,0,0,0,0,0,0,0,0,0,0,0,0,0,0,0,0,0,0,0,0,0,0,0,0,1208,0,0,0,0,0,0,0,0,0,0,0,0,0,0,0,0,0,0,0,0,0,0,0,0,1208,0,0,0,0,0,0,0,0,0,0,0,0,0,0,0,0,0,0,0,0,0,0,0,0,0,0,0,0,0,0,0,0,0,0,0,0,0,0,0,0,0,0,0,0,0,0,0,0,0,0,0,0,0,0,0,0,0,0,0,0,0,0,0,0,0,0,0,0,0,0,0,0,0,0,0,0,0,0,0,0,0,0,0,0,0,0,0,0,0,0,0,0,0,0,0,0,0,0,0,0,0,0,0,0,0,0,0,0,0,0,1208,0,0,0,
0,0,0,0,0,0,0,0,0,0,0,0,0,0,0,0,0,0,0,0,0,0,0,0,0,0,0,0,0,0,0,0,0,0,0,0,0,0,0,0,0,0,0,0,0,0,0,0,0,0,0,0,0,1208,0,0,0,0,0,0,0,0,1208,1208,1208,0,0,0,1208,1208,0,0,0,1208,0,1208,0,0,0,0,0,0,0,0,0,0,0,0,0,0,0,0,0,0,0,0,0,0,0,0,0,0,0,0,1208,0,0,0,0,0,0,0,0,0,0,0,0,0,0,0,0,0,0,0,0,0,0,0,0,0,0,0,0,0,0,0,0,0,0,0,0,0,0,0,0,0,0,0,0,0,0,0,0,0,0,0,0,0,0,0,1208,0,0,0,0,0,0,0,0,0,0,0,0,0,0,0,0,0,0,0,0,0,0,0,1208,1208,0,0,0,0,0,0,0,0,0,0,0,0,0,0,0,0,0,0,0,0,0,0,0,0,0,0,0,0,0,0,0,0,0,0,0,0,0,0,0,0,0,0,0,0,0,0,0,0,0,0,0,0,0,0,0,0,0,0,0,0,0,0,0,0,0,0,0,0,0,0,0,0,0,0,0,0,0,0,0,0,0,0,0,0,0,0,0,0,0,0,0,0,0,0,0,0,0,0,0,0,0,0,0,0,0,0,0,0,0,0,1208,1208,1208,0,
0,0,0,0,0,0,0,0,0,0,0,0,0,0,0,0,0,0,0,0,0,0,0,0,0,0,0,0,0,0,0,0,0,0,0,0,0,0,0,0,0,0,0,0,0,0,0,0,0,0,0,0,0,1208,1208,1208,1208,1208,1208,1208,1208,1208,1208,1208,1208,0,0,0,1208,1208,0,0,0,1208,0,1208,0,0,0,0,0,0,0,0,0,0,0,0,0,0,0,0,0,0,0,0,0,0,0,0,0,0,0,0,1208,0,0,0,0,0,0,0,0,0,0,0,0,0,0,0,0,0,0,0,0,0,0,0,0,0,0,0,0,0,0,0,0,0,0,0,0,0,0,0,0,0,0,0,0,0,0,0,0,0,0,0,0,0,0,0,1208,0,0,0,0,0,0,0,0,0,0,0,0,0,0,0,0,0,0,0,0,0,0,1208,0,0,0,0,0,0,0,0,0,0,0,0,0,0,0,0,0,0,0,0,0,0,0,0,0,0,0,0,0,0,0,0,0,0,0,0,0,0,0,0,0,0,0,0,0,0,0,0,0,0,0,0,0,0,0,0,0,0,0,0,0,0,0,0,0,0,0,0,0,0,0,0,0,0,0,0,0,0,0,0,0,0,0,0,0,0,0,0,0,0,0,0,0,0,0,0,0,0,0,0,0,0,0,0,0,0,0,0,0,0,0,0,0,0,1208,0
</data>
 </layer>
 <objectgroup id="6" name="entities">
  <object id="22" template="lvl1/player.tx" x="16" y="208"/>
  <object id="23" template="lvl1/coin.tx" x="3616" y="128"/>
  <object id="24" template="lvl1/coin.tx" x="3632" y="128"/>
  <object id="25" template="lvl1/coin.tx" x="3648" y="128"/>
  <object id="26" template="lvl1/coin.tx" x="3712" y="176"/>
  <object id="27" template="lvl1/coin.tx" x="3728" y="192"/>
  <object id="28" template="lvl1/coin.tx" x="3728" y="160"/>
  <object id="29" template="lvl1/coin.tx" x="3744" y="176"/>
  <object id="30" template="lvl1/coin.tx" x="3904" y="112"/>
  <object id="31" template="lvl1/coin.tx" x="3920" y="112"/>
  <object id="32" template="lvl1/coin.tx" x="4000" y="96"/>
  <object id="33" template="lvl1/coin.tx" x="4016" y="96"/>
  <object id="34" template="lvl1/coin.tx" x="4096" y="64"/>
  <object id="35" template="lvl1/coin.tx" x="4112" y="64"/>
  <object id="36" template="lvl1/coin.tx" x="4208" y="48"/>
  <object id="37" template="lvl1/coin.tx" x="4224" y="48"/>
  <object id="38" x="4192" y="48">
   <properties>
    <property name="type" type="int" propertytype="entity_type" value="5"/>
   </properties>
   <point/>
  </object>
  <object id="39" x="4144" y="64">
   <properties>
    <property name="type" type="int" propertytype="entity_type" value="5"/>
   </properties>
   <point/>
  </object>
  <object id="40" x="4080" y="80">
   <properties>
    <property name="type" type="int" propertytype="entity_type" value="5"/>
   </properties>
   <point/>
  </object>
  <object id="41" x="4032" y="96">
   <properties>
    <property name="type" type="int" propertytype="entity_type" value="5"/>
   </properties>
   <point/>
  </object>
  <object id="42" x="3920" y="128">
   <properties>
    <property name="type" type="int" propertytype="entity_type" value="5"/>
   </properties>
   <point/>
  </object>
  <object id="43" x="3808" y="176">
   <properties>
    <property name="type" type="int" propertytype="entity_type" value="2"/>
   </properties>
   <point/>
  </object>
  <object id="44" x="4304" y="160">
   <properties>
    <property name="type" type="int" propertytype="entity_type" value="2"/>
   </properties>
   <point/>
  </object>
  <object id="45" x="4176" y="176">
   <properties>
    <property name="type" type="int" propertytype="entity_type" value="2"/>
   </properties>
   <point/>
  </object>
  <object id="46" x="4048" y="176">
   <properties>
    <property name="type" type="int" propertytype="entity_type" value="2"/>
   </properties>
   <point/>
  </object>
  <object id="47" x="4376" y="176">
   <properties>
    <property name="type" type="int" propertytype="entity_type" value="4"/>
   </properties>
   <point/>
  </object>
  <object id="48" x="4520" y="176">
   <properties>
    <property name="type" type="int" propertytype="entity_type" value="4"/>
   </properties>
   <point/>
  </object>
  <object id="49" x="4240" y="192">
   <properties>
    <property name="type" type="int" propertytype="entity_type" value="4"/>
   </properties>
   <point/>
  </object>
  <object id="50" template="lvl1/coin.tx" x="3984" y="16"/>
  <object id="51" template="lvl1/coin.tx" x="4000" y="16"/>
  <object id="52" template="lvl1/coin.tx" x="4016" y="16"/>
  <object id="53" x="3984" y="128">
   <properties>
    <property name="type" type="int" propertytype="entity_type" value="4"/>
   </properties>
   <point/>
  </object>
  <object id="54" template="lvl1/coin.tx" x="4672" y="112"/>
  <object id="55" template="lvl1/coin.tx" x="4688" y="112"/>
  <object id="56" template="lvl1/coin.tx" x="4704" y="144"/>
  <object id="57" template="lvl1/coin.tx" x="4704" y="144"/>
  <object id="58" template="lvl1/coin.tx" x="4672" y="144"/>
  <object id="59" template="lvl1/coin.tx" x="4656" y="144"/>
  <object id="60" template="lvl1/coin.tx" x="4640" y="144"/>
  <object id="61" template="lvl1/coin.tx" x="4624" y="144"/>
  <object id="62" template="lvl1/coin.tx" x="4624" y="112"/>
  <object id="63" template="lvl1/coin.tx" x="4640" y="112"/>
  <object id="64" template="lvl1/coin.tx" x="4656" y="112"/>
  <object id="65" template="lvl1/coin.tx" x="4688" y="144"/>
  <object id="66" template="lvl1/coin.tx" x="4704" y="112"/>
  <object id="67" template="lvl1/coin.tx" x="4720" y="112"/>
  <object id="68" template="lvl1/coin.tx" x="4720" y="144"/>
  <object id="69" template="lvl1/coin.tx" x="4672" y="128"/>
  <object id="70" template="lvl1/coin.tx" x="4688" y="128"/>
  <object id="71" template="lvl1/coin.tx" x="4624" y="128"/>
  <object id="72" template="lvl1/coin.tx" x="4640" y="128"/>
  <object id="73" template="lvl1/coin.tx" x="4656" y="128"/>
  <object id="74" template="lvl1/coin.tx" x="4704" y="128"/>
  <object id="75" template="lvl1/coin.tx" x="4720" y="128"/>
  <object id="82" x="368" y="176">
   <properties>
    <property name="type" type="int" propertytype="entity_type" value="2"/>
   </properties>
   <point/>
  </object>
  <object id="84" x="368" y="160">
   <properties>
    <property name="type" type="int" propertytype="entity_type" value="3"/>
   </properties>
   <point/>
  </object>
  <object id="85" x="784" y="176">
   <properties>
    <property name="type" type="int" propertytype="entity_type" value="4"/>
   </properties>
   <point/>
  </object>
  <object id="86" x="352" y="48">
   <properties>
    <property name="type" type="int" propertytype="entity_type" value="3"/>
   </properties>
   <point/>
  </object>
  <object id="87" x="368" y="48">
   <properties>
    <property name="type" type="int" propertytype="entity_type" value="3"/>
   </properties>
   <point/>
  </object>
  <object id="88" x="384" y="48">
   <properties>
    <property name="type" type="int" propertytype="entity_type" value="3"/>
   </properties>
   <point/>
  </object>
  <object id="94" x="432" y="80">
   <properties>
    <property name="type" type="int" propertytype="entity_type" value="3"/>
   </properties>
   <point/>
  </object>
  <object id="95" x="512" y="48">
   <properties>
    <property name="type" type="int" propertytype="entity_type" value="3"/>
   </properties>
   <point/>
  </object>
  <object id="89" x="352" y="16">
   <properties>
    <property name="type" type="int" propertytype="entity_type" value="3"/>
   </properties>
   <point/>
  </object>
  <object id="90" x="368" y="16">
   <properties>
    <property name="type" type="int" propertytype="entity_type" value="3"/>
   </properties>
   <point/>
  </object>
  <object id="91" x="384" y="16">
   <properties>
    <property name="type" type="int" propertytype="entity_type" value="3"/>
   </properties>
   <point/>
  </object>
  <object id="96" x="912" y="160">
   <properties>
    <property name="type" type="int" propertytype="entity_type" value="2"/>
   </properties>
   <point/>
  </object>
  <object id="97" x="720" y="144">
   <properties>
    <property name="type" type="int" propertytype="entity_type" value="2"/>
   </properties>
   <point/>
  </object>
  <object id="98" x="608" y="160">
   <properties>
    <property name="type" type="int" propertytype="entity_type" value="2"/>
   </properties>
   <point/>
  </object>
  <object id="99" x="912" y="144">
   <properties>
    <property name="type" type="int" propertytype="entity_type" value="2"/>
   </properties>
   <point/>
  </object>
  <object id="100" x="816" y="64">
   <properties>
    <property name="type" type="int" propertytype="entity_type" value="7"/>
   </properties>
   <polyline points="0,0 -256,0"/>
  </object>
  <object id="101" x="128" y="192">
   <properties>
    <property name="type" type="int" propertytype="entity_type" value="3"/>
   </properties>
   <point/>
  </object>
  <object id="102" x="128" y="176">
   <properties>
    <property name="type" type="int" propertytype="entity_type" value="3"/>
   </properties>
   <point/>
  </object>
  <object id="103" x="1264" y="192">
   <properties>
    <property name="type" type="int" propertytype="entity_type" value="7"/>
   </properties>
   <polyline points="0,0 64,-128"/>
  </object>
  <object id="104" x="936.5" y="220">
   <properties>
    <property name="type" type="int" propertytype="entity_type" value="3"/>
   </properties>
   <point/>
  </object>
  <object id="105" x="952.5" y="220">
   <properties>
    <property name="type" type="int" propertytype="entity_type" value="3"/>
   </properties>
   <point/>
  </object>
  <object id="110" x="880" y="288">
   <properties>
    <property name="type" type="int" propertytype="entity_type" value="3"/>
   </properties>
   <point/>
  </object>
  <object id="111" x="896" y="288">
   <properties>
    <property name="type" type="int" propertytype="entity_type" value="3"/>
   </properties>
   <point/>
  </object>
  <object id="112" x="880" y="304">
   <properties>
    <property name="type" type="int" propertytype="entity_type" value="3"/>
   </properties>
   <point/>
  </object>
  <object id="113" x="896" y="304">
   <properties>
    <property name="type" type="int" propertytype="entity_type" value="3"/>
   </properties>
   <point/>
  </object>
  <object id="114" x="992" y="288">
   <properties>
    <property name="type" type="int" propertytype="entity_type" value="4"/>
   </properties>
   <point/>
  </object>
  <object id="115" x="1888" y="80">
   <properties>
    <property name="type" type="int" propertytype="entity_type" value="5"/>
   </properties>
   <point/>
  </object>
  <object id="116" x="2048" y="48">
   <properties>
    <property name="type" type="int" propertytype="entity_type" value="5"/>
   </properties>
   <point/>
  </object>
  <object id="117" x="1024" y="144">
   <properties>
    <property name="type" type="int" propertytype="entity_type" value="3"/>
   </properties>
   <point/>
  </object>
  <object id="118" x="1104" y="128">
   <properties>
    <property name="type" type="int" propertytype="entity_type" value="3"/>
   </properties>
   <point/>
  </object>
  <object id="119" x="1184" y="176">
   <properties>
    <property name="type" type="int" propertytype="entity_type" value="3"/>
   </properties>
   <point/>
  </object>
  <object id="120" x="1200" y="176">
   <properties>
    <property name="type" type="int" propertytype="entity_type" value="3"/>
   </properties>
   <point/>
  </object>
  <object id="121" x="1448.5" y="44">
   <properties>
    <property name="type" type="int" propertytype="entity_type" value="3"/>
   </properties>
   <point/>
  </object>
  <object id="122" x="1512.5" y="44">
   <properties>
    <property name="type" type="int" propertytype="entity_type" value="3"/>
   </properties>
   <point/>
  </object>
  <object id="123" x="1632" y="48">
   <properties>
    <property name="type" type="int" propertytype="entity_type" value="3"/>
   </properties>
   <point/>
  </object>
  <object id="124" x="1632" y="32">
   <properties>
    <property name="type" type="int" propertytype="entity_type" value="3"/>
   </properties>
   <point/>
  </object>
  <object id="125" x="1648" y="32">
   <properties>
    <property name="type" type="int" propertytype="entity_type" value="3"/>
   </properties>
   <point/>
  </object>
  <object id="126" x="1648" y="48">
   <properties>
    <property name="type" type="int" propertytype="entity_type" value="3"/>
   </properties>
   <point/>
  </object>
  <object id="127" x="1888" y="64">
   <properties>
    <property name="type" type="int" propertytype="entity_type" value="3"/>
   </properties>
   <point/>
  </object>
  <object id="128" x="1904" y="80">
   <properties>
    <property name="type" type="int" propertytype="entity_type" value="3"/>
   </properties>
   <point/>
  </object>
  <object id="129" x="2048" y="32">
   <properties>
    <property name="type" type="int" propertytype="entity_type" value="3"/>
   </properties>
   <point/>
  </object>
  <object id="130" x="2064" y="48">
   <properties>
    <property name="type" type="int" propertytype="entity_type" value="3"/>
   </properties>
   <point/>
  </object>
  <object id="131" x="2240" y="64">
   <properties>
    <property name="type" type="int" propertytype="entity_type" value="7"/>
   </properties>
   <polyline points="0,0 0,192"/>
  </object>
  <object id="132" x="2336" y="256">
   <properties>
    <property name="type" type="int" propertytype="entity_type" value="7"/>
   </properties>
   <polyline points="0,0 0,-192"/>
  </object>
  <object id="133" x="2432" y="64">
   <properties>
    <property name="type" type="int" propertytype="entity_type" value="7"/>
   </properties>
   <polyline points="0,0 0,192"/>
  </object>
  <object id="134" x="2528" y="256">
   <properties>
    <property name="type" type="int" propertytype="entity_type" value="7"/>
   </properties>
   <polyline points="0,0 0,-192"/>
  </object>
  <object id="135" x="3056" y="64">
   <properties>
    <property name="type" type="int" propertytype="entity_type" value="7"/>
   </properties>
   <polyline points="0,0 176,-16 400,32"/>
  </object>
  <object id="137" x="2816" y="80">
   <properties>
    <property name="type" type="int" propertytype="entity_type" value="4"/>
   </properties>
   <point/>
  </object>
  <object id="139" x="2752" y="160">
   <properties>
    <property name="type" type="int" propertytype="entity_type" value="2"/>
   </properties>
   <point/>
  </object>
  <object id="141" x="2864" y="160">
   <properties>
    <property name="type" type="int" propertytype="entity_type" value="2"/>
   </properties>
   <point/>
  </object>
  <object id="142" x="3024" y="144">
   <properties>
    <property name="type" type="int" propertytype="entity_type" value="5"/>
   </properties>
   <point/>
  </object>
  <object id="144" x="2224" y="48">
   <properties>
    <property name="type" type="int" propertytype="entity_type" value="3"/>
   </properties>
   <point/>
  </object>
  <object id="145" x="2256" y="48">
   <properties>
    <property name="type" type="int" propertytype="entity_type" value="3"/>
   </properties>
   <point/>
  </object>
  <object id="147" x="2320" y="48">
   <properties>
    <property name="type" type="int" propertytype="entity_type" value="3"/>
   </properties>
   <point/>
  </object>
  <object id="148" x="2352" y="48">
   <properties>
    <property name="type" type="int" propertytype="entity_type" value="3"/>
   </properties>
   <point/>
  </object>
  <object id="149" x="2416" y="48">
   <properties>
    <property name="type" type="int" propertytype="entity_type" value="3"/>
   </properties>
   <point/>
  </object>
  <object id="151" x="2448" y="48">
   <properties>
    <property name="type" type="int" propertytype="entity_type" value="3"/>
   </properties>
   <point/>
  </object>
  <object id="152" x="2512" y="48">
   <properties>
    <property name="type" type="int" propertytype="entity_type" value="3"/>
   </properties>
   <point/>
  </object>
  <object id="154" x="2544" y="48">
   <properties>
    <property name="type" type="int" propertytype="entity_type" value="3"/>
   </properties>
   <point/>
  </object>
  <object id="155" x="2672" y="16">
   <properties>
    <property name="type" type="int" propertytype="entity_type" value="3"/>
   </properties>
   <point/>
  </object>
  <object id="156" x="2688" y="32">
   <properties>
    <property name="type" type="int" propertytype="entity_type" value="3"/>
   </properties>
   <point/>
  </object>
  <object id="157" x="2656" y="32">
   <properties>
    <property name="type" type="int" propertytype="entity_type" value="3"/>
   </properties>
   <point/>
  </object>
  <object id="158" x="2672" y="32">
   <properties>
    <property name="type" type="int" propertytype="entity_type" value="3"/>
   </properties>
   <point/>
  </object>
  <object id="159" x="2960" y="48">
   <properties>
    <property name="type" type="int" propertytype="entity_type" value="3"/>
   </properties>
   <point/>
  </object>
  <object id="160" x="2976" y="48">
   <properties>
    <property name="type" type="int" propertytype="entity_type" value="3"/>
   </properties>
   <point/>
  </object>
  <object id="161" x="2960" y="32">
   <properties>
    <property name="type" type="int" propertytype="entity_type" value="3"/>
   </properties>
   <point/>
  </object>
  <object id="162" x="2976" y="32">
   <properties>
    <property name="type" type="int" propertytype="entity_type" value="3"/>
   </properties>
   <point/>
  </object>
  <object id="163" x="2960" y="16">
   <properties>
    <property name="type" type="int" propertytype="entity_type" value="3"/>
   </properties>
   <point/>
  </object>
  <object id="164" x="2976" y="16">
   <properties>
    <property name="type" type="int" propertytype="entity_type" value="3"/>
   </properties>
   <point/>
  </object>
  <object id="165" x="2656" y="144">
   <properties>
    <property name="type" type="int" propertytype="entity_type" value="3"/>
   </properties>
   <point/>
  </object>
  <object id="166" x="2816" y="160">
   <properties>
    <property name="type" type="int" propertytype="entity_type" value="3"/>
   </properties>
   <point/>
  </object>
  <object id="167" x="2784" y="160">
   <properties>
    <property name="type" type="int" propertytype="entity_type" value="3"/>
   </properties>
   <point/>
  </object>
  <object id="168" x="2800" y="160">
   <properties>
    <property name="type" type="int" propertytype="entity_type" value="3"/>
   </properties>
   <point/>
  </object>
  <object id="169" x="3056" y="48">
   <properties>
    <property name="type" type="int" propertytype="entity_type" value="3"/>
   </properties>
   <point/>
  </object>
  <object id="170" x="3104" y="32">
   <properties>
    <property name="type" type="int" propertytype="entity_type" value="3"/>
   </properties>
   <point/>
  </object>
  <object id="172" x="3232" y="16">
   <properties>
    <property name="type" type="int" propertytype="entity_type" value="3"/>
   </properties>
   <point/>
  </object>
  <object id="173" x="3232" y="32">
   <properties>
    <property name="type" type="int" propertytype="entity_type" value="3"/>
   </properties>
   <point/>
  </object>
  <object id="174" x="3232" y="48">
   <properties>
    <property name="type" type="int" propertytype="entity_type" value="3"/>
   </properties>
   <point/>
  </object>
  <object id="175" x="3232" y="64">
   <properties>
    <property name="type" type="int" propertytype="entity_type" value="3"/>
   </properties>
   <point/>
  </object>
  <object id="176" x="3312" y="48">
   <properties>
    <property name="type" type="int" propertytype="entity_type" value="3"/>
   </properties>
   <point/>
  </object>
  <object id="177" x="3376" y="64">
   <properties>
    <property name="type" type="int" propertytype="entity_type" value="3"/>
   </properties>
   <point/>
  </object>
  <object id="178" x="3424" y="80">
   <properties>
    <property name="type" type="int" propertytype="entity_type" value="3"/>
   </properties>
   <point/>
  </object>
  <object id="179" template="lvl1/coin.tx" x="4560" y="64"/>
  <object id="180" template="lvl1/coin.tx" x="4576" y="64"/>
  <object id="181" template="lvl1/coin.tx" x="4560" y="80"/>
  <object id="182" template="lvl1/coin.tx" x="4576" y="80"/>
 </objectgroup>
</map>
